assets/luts/Kodak Portra Endura.cube
TITLE "DiVERE Kodak Portra Endura"
LUT_1D_SIZE 1024
DOMAIN_MIN 0.0 0.0 0.0
DOMAIN_MAX 1.0 1.0 1.0

0.464697 0.465751 0.515546
0.464697 0.465751 0.515546
0.464697 0.465751 0.515546
0.464697 0.465751 0.515546
0.464697 0.465751 0.515546
0.464697 0.465751 0.515546
0.464697 0.465751 0.515546
0.464697 0.465751 0.515546
0.464697 0.465751 0.515546
0.464697 0.465751 0.515546
0.464697 0.465751 0.515546
0.464697 0.465751 0.515546
0.464697 0.465751 0.515546
0.464697 0.465751 0.515546
0.464697 0.465751 0.515546
0.464697 0.465751 0.515546
0.464697 0.465751 0.515546
0.464697 0.465751 0.515546
0.464697 0.465751 0.515546
0.464697 0.465751 0.515546
0.464697 0.465751 0.515546
0.464697 0.465751 0.515546
0.464697 0.465751 0.515546
0.464697 0.465751 0.515546
0.464697 0.465751 0.515546
0.464697 0.465751 0.515546
0.464697 0.465751 0.515546
0.464697 0.465751 0.515546
0.464697 0.465751 0.515546
0.464697 0.465751 0.515546
0.464697 0.465751 0.515546
0.464697 0.465751 0.515546
0.464697 0.465751 0.515546
0.464697 0.465751 0.515546
0.464697 0.465751 0.515546
0.464697 0.465751 0.515546
0.464697 0.465751 0.515546
0.464697 0.465751 0.515546
0.464697 0.465751 0.515546
0.464697 0.465751 0.515546
0.464697 0.465751 0.515546
0.464697 0.465751 0.515546
0.464697 0.465751 0.515546
0.464697 0.465751 0.515546
0.464697 0.465751 0.515546
0.464697 0.465751 0.515546
0.464697 0.465751 0.515546
0.464697 0.465751 0.515546
0.464697 0.465751 0.515546
0.464697 0.465751 0.515546
0.464697 0.465751 0.515546
0.464697 0.465751 0.515546
0.464697 0.465751 0.515546
0.464697 0.465751 0.515546
0.464697 0.465751 0.515546
0.464697 0.465751 0.515546
0.464697 0.465751 0.515546
0.464697 0.465751 0.515546
0.464697 0.465751 0.515546
0.464697 0.465751 0.515546
0.464697 0.465751 0.515546
0.464697 0.465751 0.515546
0.464697 0.465751 0.515546
0.464697 0.465751 0.515546
0.464697 0.465751 0.515546
0.464697 0.465751 0.515546
0.464697 0.465751 0.515546
0.464697 0.465751 0.515546
0.464697 0.465751 0.515546
0.464697 0.465751 0.515546
0.464697 0.465751 0.515546
0.464697 0.465751 0.515546
0.464697 0.465751 0.515546
0.464697 0.465751 0.515546
0.464697 0.465751 0.515546
0.464697 0.465751 0.515546
0.464697 0.465751 0.515546
0.464697 0.465751 0.515546
0.464697 0.465751 0.515546
0.464697 0.465751 0.515546
0.464697 0.465751 0.515546
0.464697 0.465751 0.515546
0.464697 0.465751 0.515546
0.464697 0.465751 0.515546
0.464697 0.465751 0.515546
0.464697 0.465751 0.515546
0.464697 0.465751 0.515546
0.464697 0.465751 0.515546
0.464697 0.465751 0.515546
0.464697 0.465751 0.515546
0.464697 0.465751 0.515546
0.464697 0.465751 0.515546
0.464697 0.465751 0.515546
0.464697 0.465751 0.515546
0.464697 0.465751 0.515546
0.464697 0.465751 0.515546
0.464697 0.465751 0.515546
0.464697 0.465751 0.515546
0.464697 0.465751 0.515546
0.464697 0.465751 0.515546
0.464697 0.465751 0.515546
0.464697 0.465751 0.515546
0.464697 0.465751 0.515546
0.464697 0.465751 0.515546
0.464697 0.465751 0.515546
0.464697 0.465751 0.515546
0.464697 0.465751 0.515546
0.464697 0.465751 0.515546
0.464697 0.465751 0.515546
0.464697 0.465751 0.515546
0.464697 0.465751 0.515546
0.464697 0.465751 0.515546
0.464697 0.465751 0.515546
0.464697 0.465751 0.515546
0.464697 0.465751 0.515546
0.464697 0.465751 0.515546
0.464697 0.465751 0.515546
0.464697 0.465751 0.515546
0.464697 0.465751 0.515546
0.464697 0.465751 0.515546
0.464697 0.465751 0.515546
0.464697 0.465751 0.515546
0.464697 0.465751 0.515546
0.464697 0.465751 0.515546
0.464697 0.465751 0.515546
0.464697 0.465751 0.515546
0.464697 0.465751 0.515546
0.464697 0.465751 0.515546
0.464697 0.465751 0.515546
0.464697 0.465751 0.515546
0.464697 0.465751 0.515546
0.464697 0.465751 0.515546
0.464697 0.465751 0.515546
0.464697 0.465751 0.515546
0.464697 0.465751 0.515546
0.464697 0.465751 0.515546
0.464697 0.465751 0.515546
0.464697 0.465751 0.515546
0.464697 0.465751 0.515546
0.464697 0.465751 0.515546
0.464697 0.465751 0.515546
0.464697 0.465751 0.515546
0.464697 0.465751 0.515546
0.464697 0.465751 0.515546
0.464697 0.465751 0.515546
0.464697 0.465751 0.515546
0.464697 0.465751 0.515546
0.464697 0.465751 0.515546
0.464697 0.465751 0.515546
0.464697 0.465751 0.515546
0.464697 0.465751 0.515546
0.464697 0.465751 0.515546
0.464697 0.465751 0.515546
0.464697 0.465751 0.515546
0.464697 0.465751 0.515546
0.464697 0.465751 0.515546
0.464697 0.465751 0.515546
0.464697 0.465751 0.515546
0.464697 0.465751 0.515546
0.464697 0.465751 0.515546
0.464697 0.465751 0.515546
0.464697 0.465751 0.515546
0.464697 0.465751 0.515546
0.464697 0.465751 0.515546
0.464697 0.465751 0.515546
0.464697 0.465751 0.515546
0.464697 0.465751 0.515546
0.464697 0.465751 0.515546
0.464697 0.465751 0.515546
0.464697 0.465751 0.515546
0.464697 0.465751 0.515546
0.464697 0.465751 0.515546
0.464697 0.465751 0.515546
0.464697 0.465751 0.515546
0.464697 0.465751 0.515546
0.464697 0.465751 0.515546
0.464697 0.465751 0.515546
0.464697 0.465751 0.515546
0.464697 0.465751 0.515546
0.464697 0.465751 0.515546
0.464697 0.465751 0.515546
0.464697 0.465751 0.515546
0.464697 0.465751 0.515546
0.464697 0.465751 0.515546
0.464697 0.465751 0.515546
0.464697 0.465751 0.515546
0.464697 0.465751 0.515546
0.464697 0.465751 0.515546
0.464697 0.465751 0.515546
0.464697 0.465751 0.515546
0.464697 0.465751 0.515546
0.464697 0.465751 0.515546
0.464697 0.465751 0.515546
0.464697 0.465751 0.515546
0.464697 0.465751 0.515546
0.464697 0.465751 0.515546
0.464697 0.465751 0.515546
0.464697 0.465751 0.515546
0.464697 0.465751 0.515546
0.464697 0.465751 0.515546
0.464697 0.465751 0.515546
0.464697 0.465751 0.515546
0.464697 0.465751 0.515546
0.464697 0.465751 0.515546
0.464697 0.465751 0.515546
0.464697 0.465751 0.515546
0.464697 0.465751 0.515546
0.464697 0.465751 0.515546
0.464697 0.465751 0.515546
0.464697 0.465751 0.515546
0.464697 0.465751 0.515546
0.464697 0.465751 0.515546
0.464697 0.465751 0.515546
0.464697 0.465751 0.515546
0.464697 0.465751 0.515546
0.464697 0.465751 0.515546
0.464697 0.465751 0.515546
0.464697 0.465751 0.515546
0.464697 0.465751 0.515546
0.464697 0.465751 0.515546
0.464697 0.465751 0.515546
0.464697 0.465751 0.515546
0.464697 0.465751 0.515546
0.464697 0.465751 0.515546
0.464697 0.465751 0.515546
0.464697 0.465751 0.515546
0.464697 0.465751 0.515546
0.464697 0.465751 0.515546
0.464697 0.465751 0.515546
0.464697 0.465751 0.515546
0.464697 0.465751 0.515546
0.464697 0.465751 0.515546
0.464697 0.465751 0.515546
0.464697 0.465751 0.515546
0.464697 0.465751 0.515546
0.464697 0.465751 0.515546
0.464697 0.465751 0.515546
0.464697 0.465751 0.515546
0.464697 0.465751 0.515546
0.464697 0.465751 0.515546
0.464697 0.465751 0.515546
0.464697 0.465751 0.515546
0.464697 0.465751 0.515546
0.464697 0.465751 0.515546
0.464697 0.465751 0.515546
0.464697 0.465751 0.515546
0.464697 0.465751 0.515546
0.464697 0.465751 0.515546
0.464697 0.465751 0.515546
0.464697 0.465751 0.515546
0.464697 0.465751 0.515546
0.464697 0.465751 0.515546
0.464697 0.465751 0.515546
0.464697 0.465751 0.515546
0.464697 0.465751 0.515546
0.464697 0.465751 0.515546
0.464697 0.465751 0.515546
0.464697 0.465751 0.515546
0.464697 0.465751 0.515546
0.464697 0.465751 0.515546
0.464697 0.465751 0.515546
0.464697 0.465751 0.515546
0.464697 0.465751 0.515546
0.464697 0.465751 0.515546
0.464697 0.465751 0.515546
0.464697 0.465751 0.515546
0.464697 0.465751 0.515546
0.464697 0.465751 0.515546
0.464697 0.465751 0.515546
0.464697 0.465751 0.515546
0.464697 0.465751 0.515546
0.464697 0.465751 0.515546
0.464697 0.465751 0.515546
0.464697 0.465751 0.515546
0.464697 0.465751 0.515546
0.464697 0.465751 0.515546
0.464697 0.465751 0.515546
0.464697 0.465751 0.515546
0.464697 0.465751 0.515546
0.464697 0.465751 0.515546
0.464697 0.465751 0.515546
0.464697 0.465751 0.515546
0.464697 0.465751 0.515546
0.464697 0.465751 0.515546
0.464697 0.465751 0.515546
0.464697 0.465751 0.515546
0.464697 0.465751 0.515546
0.464697 0.465751 0.515546
0.464697 0.465751 0.515546
0.464697 0.465751 0.515546
0.464697 0.465751 0.515546
0.464697 0.465751 0.515546
0.464697 0.465751 0.515546
0.464697 0.465751 0.515546
0.464697 0.465751 0.515546
0.464697 0.465751 0.515546
0.464697 0.465751 0.515546
0.464697 0.465751 0.515546
0.464697 0.465751 0.515546
0.464697 0.465751 0.515546
0.464697 0.465751 0.515546
0.464697 0.465751 0.515546
0.464697 0.465751 0.515546
0.464697 0.465751 0.515546
0.464697 0.465751 0.515546
0.464697 0.465751 0.515546
0.464697 0.465751 0.515546
0.464697 0.465751 0.515546
0.464697 0.465751 0.515546
0.464697 0.465751 0.515546
0.464697 0.465751 0.515546
0.464697 0.465751 0.515546
0.464697 0.465751 0.515546
0.464697 0.465751 0.515546
0.464697 0.465751 0.515546
0.464697 0.465751 0.515546
0.464697 0.465751 0.515546
0.464697 0.465751 0.515546
0.464697 0.465751 0.515546
0.464697 0.465751 0.515546
0.464697 0.465751 0.515546
0.464697 0.465751 0.515546
0.464697 0.465751 0.515546
0.464697 0.465751 0.515546
0.464697 0.465751 0.515546
0.464697 0.465751 0.515546
0.464697 0.465751 0.515546
0.464697 0.465751 0.515546
0.464697 0.465751 0.515546
0.464697 0.465751 0.515546
0.464697 0.465751 0.515546
0.464697 0.465751 0.515546
0.464697 0.465751 0.515546
0.464697 0.465751 0.515546
0.464697 0.465751 0.515546
0.464697 0.465751 0.515546
0.464697 0.465751 0.515546
0.464697 0.465751 0.515546
0.464697 0.465751 0.515546
0.464697 0.465751 0.515546
0.464697 0.465751 0.515546
0.464697 0.465751 0.515546
0.464697 0.465751 0.515546
0.464697 0.465751 0.515546
0.464697 0.465751 0.515546
0.464697 0.465751 0.515546
0.464697 0.465751 0.515546
0.464697 0.465751 0.515546
0.464697 0.465751 0.515546
0.464697 0.465751 0.515546
0.464697 0.465751 0.515546
0.464697 0.465751 0.515546
0.464697 0.465751 0.515546
0.464697 0.465751 0.515546
0.464697 0.465751 0.515546
0.464697 0.465751 0.515546
0.464697 0.465751 0.515546
0.464697 0.465751 0.515546
0.464697 0.465751 0.515546
0.464697 0.465751 0.515546
0.464697 0.465751 0.515546
0.464697 0.465751 0.515546
0.464697 0.465751 0.515546
0.464697 0.465751 0.515546
0.464697 0.465751 0.515546
0.464697 0.465751 0.515546
0.464697 0.465751 0.515546
0.464697 0.465751 0.515546
0.464697 0.465751 0.515546
0.464697 0.465751 0.515546
0.464697 0.465751 0.515546
0.464697 0.465751 0.515546
0.464697 0.465751 0.515546
0.464697 0.465751 0.515546
0.464697 0.465751 0.515546
0.464697 0.465751 0.515546
0.464697 0.465751 0.515546
0.464697 0.465751 0.515546
0.464697 0.465751 0.515546
0.464697 0.465751 0.515546
0.464697 0.465751 0.515546
0.464697 0.465751 0.515546
0.464697 0.465751 0.515546
0.464697 0.465751 0.515546
0.464697 0.465751 0.515546
0.464697 0.465751 0.515546
0.464697 0.465751 0.515546
0.464697 0.465751 0.515546
0.464697 0.465751 0.515546
0.464697 0.465751 0.515546
0.464697 0.465751 0.515546
0.464697 0.465751 0.515546
0.464697 0.465751 0.515546
0.464697 0.465751 0.515546
0.464697 0.465751 0.515546
0.464697 0.465751 0.515546
0.464697 0.465751 0.515546
0.464697 0.465751 0.515546
0.464697 0.465751 0.515546
0.464697 0.465751 0.515546
0.464697 0.465751 0.515546
0.464697 0.465751 0.515546
0.464697 0.465751 0.515546
0.464697 0.465751 0.515546
0.464697 0.465751 0.515546
0.464697 0.465751 0.515546
0.464697 0.465751 0.515546
0.464697 0.465751 0.515546
0.464697 0.465751 0.515546
0.464697 0.465751 0.515546
0.464697 0.465751 0.515546
0.464697 0.465751 0.515546
0.464697 0.465751 0.515546
0.464697 0.465751 0.515546
0.464697 0.465890 0.515583
0.464723 0.466067 0.515637
0.464898 0.466243 0.515691
0.465072 0.466419 0.515744
0.465247 0.466596 0.515798
0.465422 0.466772 0.515852
0.465596 0.466949 0.515905
0.465771 0.467125 0.515959
0.465946 0.467302 0.516012
0.466120 0.467478 0.516066
0.466295 0.467655 0.516120
0.466470 0.467831 0.516173
0.466644 0.468007 0.516227
0.466819 0.468184 0.516281
0.466994 0.468360 0.516334
0.467168 0.468537 0.516388
0.467343 0.468713 0.516442
0.467518 0.468890 0.516495
0.467692 0.469066 0.516549
0.467867 0.469243 0.516603
0.468041 0.469419 0.516656
0.468216 0.469595 0.516710
0.468391 0.469772 0.516764
0.468565 0.469948 0.516817
0.468740 0.470125 0.516871
0.468915 0.470301 0.516925
0.469089 0.470478 0.516978
0.469264 0.470654 0.517032
0.469439 0.470831 0.517086
0.469613 0.471007 0.517139
0.469788 0.471183 0.517193
0.469963 0.471358 0.517247
0.470137 0.471491 0.517290
0.470306 0.471624 0.517333
0.470434 0.471757 0.517376
0.470562 0.471890 0.517420
0.470691 0.472024 0.517463
0.470819 0.472157 0.517506
0.470948 0.472290 0.517549
0.471076 0.472423 0.517593
0.471204 0.472556 0.517636
0.471333 0.472690 0.517679
0.471461 0.472823 0.517722
0.471590 0.472956 0.517766
0.471718 0.473089 0.517809
0.471847 0.473222 0.517852
0.471975 0.473356 0.517895
0.472103 0.473489 0.517938
0.472232 0.473622 0.517982
0.472360 0.473755 0.518025
0.472489 0.473888 0.518068
0.472617 0.474021 0.518111
0.472745 0.474155 0.518155
0.472874 0.474288 0.518198
0.473002 0.474421 0.518241
0.473131 0.474554 0.518284
0.473259 0.474687 0.518328
0.473387 0.474821 0.518371
0.473516 0.474954 0.518414
0.473644 0.475087 0.518457
0.473773 0.475220 0.518501
0.473901 0.475353 0.518544
0.474030 0.475487 0.518587
0.474158 0.475697 0.518642
0.474286 0.476074 0.518728
0.474431 0.476450 0.518814
0.474683 0.476827 0.518900
0.474934 0.477204 0.518986
0.475186 0.477580 0.519072
0.475438 0.477957 0.519158
0.475689 0.478334 0.519244
0.475941 0.478710 0.519330
0.476193 0.479087 0.519416
0.476444 0.479464 0.519502
0.476696 0.479840 0.519588
0.476948 0.480217 0.519675
0.477199 0.480593 0.519761
0.477451 0.480970 0.519847
0.477703 0.481347 0.519933
0.477954 0.481723 0.520019
0.478206 0.482100 0.520105
0.478458 0.482477 0.520191
0.478709 0.482853 0.520277
0.478961 0.483230 0.520363
0.479213 0.483607 0.520449
0.479464 0.483983 0.520535
0.479716 0.484360 0.520621
0.479968 0.484737 0.520708
0.480219 0.485113 0.520794
0.480471 0.485490 0.520880
0.480723 0.485867 0.520966
0.480974 0.486243 0.521052
0.481226 0.486620 0.521138
0.481478 0.486996 0.521224
0.481729 0.487373 0.521310
0.481981 0.487769 0.521413
0.482233 0.488180 0.521529
0.482490 0.488590 0.521645
0.482790 0.489000 0.521761
0.483089 0.489411 0.521878
0.483389 0.489821 0.521994
0.483688 0.490232 0.522110
0.483988 0.490642 0.522226
0.484287 0.491052 0.522343
0.484587 0.491463 0.522459
0.484886 0.491873 0.522575
0.485186 0.492283 0.522691
0.485485 0.492694 0.522807
0.485785 0.493104 0.522924
0.486085 0.493514 0.523040
0.486384 0.493925 0.523156
0.486684 0.494335 0.523272
0.486983 0.494745 0.523389
0.487283 0.495156 0.523505
0.487582 0.495566 0.523621
0.487882 0.495977 0.523737
0.488181 0.496387 0.523854
0.488481 0.496797 0.523970
0.488780 0.497208 0.524086
0.489080 0.497618 0.524202
0.489379 0.498028 0.524319
0.489679 0.498439 0.524435
0.489978 0.498849 0.524551
0.490278 0.499259 0.524667
0.490577 0.499670 0.524783
0.490877 0.500080 0.524900
0.491176 0.500490 0.525016
0.491476 0.501070 0.525236
0.491775 0.501680 0.525479
0.492097 0.502290 0.525722
0.492588 0.502900 0.525965
0.493078 0.503510 0.526208
0.493569 0.504119 0.526451
0.494059 0.504729 0.526694
0.494550 0.505339 0.526936
0.495041 0.505949 0.527179
0.495531 0.506559 0.527422
0.496022 0.507169 0.527665
0.496512 0.507779 0.527908
0.497003 0.508389 0.528151
0.497493 0.508999 0.528393
0.497984 0.509609 0.528636
0.498475 0.510219 0.528879
0.498965 0.510829 0.529122
0.499456 0.511439 0.529365
0.499946 0.512049 0.529608
0.500437 0.512659 0.529851
0.500928 0.513269 0.530093
0.501418 0.513879 0.530336
0.501909 0.514489 0.530579
0.502399 0.515099 0.530822
0.502890 0.515709 0.531065
0.503380 0.516319 0.531308
0.503871 0.516929 0.531550
0.504362 0.517539 0.531793
0.504852 0.518149 0.532036
0.505343 0.518759 0.532279
0.505833 0.519369 0.532522
0.506324 0.520024 0.532807
0.506814 0.521044 0.533457
0.507305 0.522065 0.534108
0.507849 0.523086 0.534758
0.508829 0.524107 0.535408
0.509810 0.525128 0.536059
0.510791 0.526149 0.536709
0.511771 0.527170 0.537359
0.512752 0.528190 0.538010
0.513732 0.529211 0.538660
0.514713 0.530232 0.539311
0.515694 0.531253 0.539961
0.516674 0.532274 0.540611
0.517655 0.533294 0.541262
0.518635 0.534315 0.541912
0.519616 0.535336 0.542562
0.520597 0.536357 0.543213
0.521577 0.537378 0.543863
0.522558 0.538399 0.544513
0.523538 0.539419 0.545164
0.524519 0.540440 0.545814
0.525500 0.541461 0.546464
0.526480 0.542482 0.547115
0.527461 0.543503 0.547765
0.528441 0.544524 0.548415
0.529422 0.545545 0.549066
0.530403 0.546565 0.549716
0.531383 0.547586 0.550366
0.532364 0.548607 0.551017
0.533344 0.549628 0.551667
0.534325 0.550649 0.552317
0.535306 0.551669 0.552968
0.536286 0.552995 0.554024
0.537267 0.554832 0.555730
0.538247 0.556669 0.557436
0.539328 0.558505 0.559142
0.541302 0.560342 0.560848
0.543275 0.562179 0.562554
0.545249 0.564016 0.564260
0.547223 0.565852 0.565966
0.549196 0.567689 0.567671
0.551170 0.569526 0.569377
0.553144 0.571363 0.571083
0.555117 0.573199 0.572789
0.557091 0.575036 0.574495
0.559065 0.576873 0.576201
0.561038 0.578710 0.577907
0.563012 0.580546 0.579613
0.564986 0.582383 0.581319
0.566959 0.584220 0.583025
0.568933 0.586057 0.584731
0.570907 0.587893 0.586436
0.572880 0.589730 0.588142
0.574854 0.591567 0.589848
0.576827 0.593404 0.591554
0.578801 0.595240 0.593260
0.580775 0.597077 0.594966
0.582748 0.598914 0.596672
0.584722 0.600751 0.598378
0.586696 0.602587 0.600084
0.588669 0.604424 0.601790
0.590643 0.606261 0.603496
0.592617 0.608098 0.605201
0.594590 0.609934 0.606907
0.596564 0.612340 0.609407
0.598538 0.615069 0.612306
0.600511 0.617798 0.615205
0.602574 0.620527 0.618104
0.605508 0.623256 0.621003
0.608442 0.625985 0.623902
0.611376 0.628714 0.626801
0.614310 0.631443 0.629700
0.617243 0.634172 0.632599
0.620177 0.636901 0.635498
0.623111 0.639630 0.638397
0.626045 0.642359 0.641295
0.628979 0.645088 0.644194
0.631912 0.647817 0.647093
0.634846 0.650546 0.649992
0.637780 0.653276 0.652891
0.640714 0.656005 0.655790
0.643648 0.658734 0.658689
0.646581 0.661463 0.661588
0.649515 0.664192 0.664487
0.652449 0.666921 0.667386
0.655383 0.669650 0.670285
0.658317 0.672379 0.673184
0.661250 0.675108 0.676083
0.664184 0.677837 0.678982
0.667118 0.680566 0.681881
0.670052 0.683295 0.684780
0.672986 0.686024 0.687679
0.675920 0.688753 0.690578
0.678853 0.691482 0.693477
0.681787 0.694211 0.696376
0.684721 0.696940 0.699275
0.687655 0.699954 0.702444
0.690589 0.703000 0.705629
0.693522 0.706045 0.708813
0.696472 0.709090 0.711998
0.699591 0.712136 0.715182
0.702709 0.715181 0.718367
0.705828 0.718226 0.721552
0.708947 0.721272 0.724736
0.712065 0.724317 0.727921
0.715184 0.727362 0.731105
0.718303 0.730407 0.734290
0.721421 0.733453 0.737475
0.724540 0.736498 0.740659
0.727659 0.739543 0.743844
0.730778 0.742589 0.747028
0.733896 0.745634 0.750213
0.737015 0.748679 0.753398
0.740134 0.751725 0.756582
0.743252 0.754770 0.759767
0.746371 0.757815 0.762951
0.749490 0.760861 0.766136
0.752608 0.763906 0.769321
0.755727 0.766951 0.772505
0.758846 0.769996 0.775690
0.761964 0.773042 0.778875
0.765083 0.776087 0.782059
0.768202 0.779132 0.785244
0.771321 0.782178 0.788428
0.774439 0.785223 0.791613
0.777558 0.788268 0.794798
0.780677 0.791314 0.797982
0.783795 0.794291 0.801041
0.786914 0.796928 0.803672
0.790033 0.799565 0.806302
0.793151 0.802203 0.808932
0.796229 0.804840 0.811562
0.798813 0.807477 0.814193
0.801397 0.810114 0.816823
0.803981 0.812751 0.819453
0.806565 0.815388 0.822083
0.809149 0.818025 0.824714
0.811733 0.820662 0.827344
0.814317 0.823299 0.829974
0.816901 0.825936 0.832604
0.819486 0.828573 0.835235
0.822070 0.831210 0.837865
0.824654 0.833848 0.840495
0.827238 0.836485 0.843125
0.829822 0.839122 0.845756
0.832406 0.841759 0.848386
0.834990 0.844396 0.851016
0.837574 0.847033 0.853646
0.840158 0.849670 0.856277
0.842743 0.852307 0.858907
0.845327 0.854944 0.861537
0.847911 0.857581 0.864167
0.850495 0.860218 0.866798
0.853079 0.862856 0.869428
0.855663 0.865493 0.872058
0.858247 0.868130 0.874688
0.860831 0.870767 0.877319
0.863415 0.873404 0.879949
0.866000 0.876041 0.882579
0.868584 0.878305 0.884756
0.871168 0.880073 0.886491
0.873752 0.881842 0.888226
0.876336 0.883611 0.889961
0.878864 0.885379 0.891695
0.880639 0.887148 0.893430
0.882415 0.888917 0.895165
0.884190 0.890685 0.896900
0.885965 0.892454 0.898635
0.887741 0.894222 0.900370
0.889516 0.895991 0.902105
0.891292 0.897760 0.903840
0.893067 0.899528 0.905575
0.894843 0.901297 0.907310
0.896618 0.903066 0.909045
0.898394 0.904834 0.910780
0.900169 0.906603 0.912515
0.901945 0.908371 0.914250
0.903720 0.910140 0.915985
0.905496 0.911909 0.917720
0.907271 0.913677 0.919455
0.909046 0.915446 0.921190
0.910822 0.917215 0.922925
0.912597 0.918983 0.924660
0.914373 0.920752 0.926395
0.916148 0.922520 0.928130
0.917924 0.924289 0.929865
0.919699 0.926058 0.931599
0.921475 0.927826 0.933334
0.923250 0.929595 0.935069
0.925026 0.931364 0.936804
0.926801 0.933132 0.938539
0.928577 0.934433 0.939700
0.930352 0.935529 0.940706
0.932127 0.936624 0.941712
0.933903 0.937719 0.942718
0.935636 0.938814 0.943724
0.936723 0.939909 0.944730
0.937810 0.941004 0.945736
0.938897 0.942099 0.946742
0.939984 0.943194 0.947748
0.941071 0.944289 0.948754
0.942158 0.945384 0.949760
0.943245 0.946479 0.950765
0.944332 0.947574 0.951771
0.945419 0.948669 0.952777
0.946506 0.949764 0.953783
0.947593 0.950859 0.954789
0.948680 0.951954 0.955795
0.949767 0.953049 0.956801
0.950854 0.954144 0.957807
0.951941 0.955240 0.958813
0.953028 0.956335 0.959819
0.954115 0.957430 0.960825
0.955202 0.958525 0.961830
0.956289 0.959620 0.962836
0.957376 0.960715 0.963842
0.958463 0.961810 0.964848
0.959550 0.962905 0.965854
0.960637 0.964000 0.966860
0.961724 0.965095 0.967866
0.962811 0.966190 0.968872
0.963898 0.967285 0.969878
0.964985 0.968380 0.970852
0.966072 0.968991 0.971389
0.967159 0.969581 0.971926
0.968246 0.970171 0.972463
0.969333 0.970760 0.973000
0.970392 0.971350 0.973537
0.970962 0.971940 0.974074
0.971532 0.972529 0.974611
0.972102 0.973119 0.975149
0.972672 0.973709 0.975686
0.973242 0.974299 0.976223
0.973812 0.974888 0.976760
0.974382 0.975478 0.977297
0.974952 0.976068 0.977834
0.975522 0.976657 0.978371
0.976092 0.977247 0.978908
0.976663 0.977837 0.979445
0.977233 0.978426 0.979982
0.977803 0.979016 0.980519
0.978373 0.979606 0.981056
0.978943 0.980196 0.981593
0.979513 0.980785 0.982131
0.980083 0.981375 0.982668
0.980653 0.981965 0.983205
0.981223 0.982554 0.983742
0.981793 0.983144 0.984279
0.982363 0.983734 0.984816
0.982933 0.984324 0.985353
0.983503 0.984913 0.985890
0.984073 0.985503 0.986427
0.984643 0.986093 0.986964
0.985213 0.986682 0.987501
0.985784 0.987200 0.987936
0.986354 0.987468 0.988180
0.986924 0.987735 0.988424
0.987494 0.988002 0.988668
0.988064 0.988269 0.988912
0.988618 0.988536 0.989156
0.988852 0.988803 0.989399
0.989085 0.989070 0.989643
0.989319 0.989337 0.989887
0.989552 0.989604 0.990131
0.989786 0.989871 0.990375
0.990019 0.990138 0.990619
0.990253 0.990406 0.990862
0.990486 0.990673 0.991106
0.990720 0.990940 0.991350
0.990953 0.991207 0.991594
0.991187 0.991474 0.991838
0.991420 0.991741 0.992082
0.991654 0.992008 0.992326
0.991887 0.992275 0.992569
0.992121 0.992542 0.992813
0.992354 0.992809 0.993057
0.992588 0.993077 0.993301
0.992821 0.993344 0.993545
0.993055 0.993611 0.993789
0.993288 0.993878 0.994032
0.993522 0.994145 0.994276
0.993755 0.994412 0.994520
0.993989 0.994679 0.994764
0.994222 0.994946 0.995008
0.994456 0.995213 0.995252
0.994690 0.995480 0.995495
0.994923 0.995664 0.995646
0.995157 0.995759 0.995741
0.995390 0.995854 0.995836
0.995624 0.995949 0.995931
0.995857 0.996044 0.996026
0.996085 0.996139 0.996121
0.996168 0.996234 0.996216
0.996251 0.996329 0.996311
0.996335 0.996424 0.996405
0.996418 0.996519 0.996500
0.996501 0.996614 0.996595
0.996585 0.996710 0.996690
0.996668 0.996805 0.996785
0.996751 0.996900 0.996880
0.996835 0.996995 0.996975
0.996918 0.997090 0.997070
0.997002 0.997185 0.997165
0.997085 0.997280 0.997260
0.997168 0.997375 0.997355
0.997252 0.997470 0.997450
0.997335 0.997565 0.997545
0.997418 0.997660 0.997640
0.997502 0.997755 0.997735
0.997585 0.997850 0.997830
0.997668 0.997945 0.997925
0.997752 0.998040 0.998020
0.997835 0.998136 0.998115
