assets/luts/Kodak Supra Endura.cube
TITLE "DiVERE Kodak Supra Endura"
LUT_1D_SIZE 1024
DOMAIN_MIN 0.0 0.0 0.0
DOMAIN_MAX 1.0 1.0 1.0

0.469296 0.479535 0.501297
0.469296 0.479535 0.501297
0.469296 0.479535 0.501297
0.469296 0.479535 0.501297
0.469296 0.479535 0.501297
0.469296 0.479535 0.501297
0.469296 0.479535 0.501297
0.469296 0.479535 0.501297
0.469296 0.479535 0.501297
0.469296 0.479535 0.501297
0.469296 0.479535 0.501297
0.469296 0.479535 0.501297
0.469296 0.479535 0.501297
0.469296 0.479535 0.501297
0.469296 0.479535 0.501297
0.469296 0.479535 0.501297
0.469296 0.479535 0.501297
0.469296 0.479535 0.501297
0.469296 0.479535 0.501297
0.469296 0.479535 0.501297
0.469296 0.479535 0.501297
0.469296 0.479535 0.501297
0.469296 0.479535 0.501297
0.469296 0.479535 0.501297
0.469296 0.479535 0.501297
0.469296 0.479535 0.501297
0.469296 0.479535 0.501297
0.469296 0.479535 0.501297
0.469296 0.479535 0.501297
0.469296 0.479535 0.501297
0.469296 0.479535 0.501297
0.469296 0.479535 0.501297
0.469296 0.479535 0.501297
0.469296 0.479535 0.501297
0.469296 0.479535 0.501297
0.469296 0.479535 0.501297
0.469296 0.479535 0.501297
0.469296 0.479535 0.501297
0.469296 0.479535 0.501297
0.469296 0.479535 0.501297
0.469296 0.479535 0.501297
0.469296 0.479535 0.501297
0.469296 0.479535 0.501297
0.469296 0.479535 0.501297
0.469296 0.479535 0.501297
0.469296 0.479535 0.501297
0.469296 0.479535 0.501297
0.469296 0.479535 0.501297
0.469296 0.479535 0.501297
0.469296 0.479535 0.501297
0.469296 0.479535 0.501297
0.469296 0.479535 0.501297
0.469296 0.479535 0.501297
0.469296 0.479535 0.501297
0.469296 0.479535 0.501297
0.469296 0.479535 0.501297
0.469296 0.479535 0.501297
0.469296 0.479535 0.501297
0.469296 0.479535 0.501297
0.469296 0.479535 0.501297
0.469296 0.479535 0.501297
0.469296 0.479535 0.501297
0.469296 0.479535 0.501297
0.469296 0.479535 0.501297
0.469296 0.479535 0.501297
0.469296 0.479535 0.501297
0.469296 0.479535 0.501297
0.469296 0.479535 0.501297
0.469296 0.479535 0.501297
0.469296 0.479535 0.501297
0.469296 0.479535 0.501297
0.469296 0.479535 0.501297
0.469296 0.479535 0.501297
0.469296 0.479535 0.501297
0.469296 0.479535 0.501297
0.469296 0.479535 0.501297
0.469296 0.479535 0.501297
0.469296 0.479535 0.501297
0.469296 0.479535 0.501297
0.469296 0.479535 0.501297
0.469296 0.479535 0.501297
0.469296 0.479535 0.501297
0.469296 0.479535 0.501297
0.469296 0.479535 0.501297
0.469296 0.479535 0.501297
0.469296 0.479535 0.501297
0.469296 0.479535 0.501297
0.469296 0.479535 0.501297
0.469296 0.479535 0.501297
0.469296 0.479535 0.501297
0.469296 0.479535 0.501297
0.469296 0.479535 0.501297
0.469296 0.479535 0.501297
0.469296 0.479535 0.501297
0.469296 0.479535 0.501297
0.469296 0.479535 0.501297
0.469296 0.479535 0.501297
0.469296 0.479535 0.501297
0.469296 0.479535 0.501297
0.469296 0.479535 0.501297
0.469296 0.479535 0.501297
0.469296 0.479535 0.501297
0.469296 0.479535 0.501297
0.469296 0.479535 0.501297
0.469296 0.479535 0.501297
0.469296 0.479535 0.501297
0.469296 0.479535 0.501297
0.469296 0.479535 0.501297
0.469296 0.479535 0.501297
0.469296 0.479535 0.501297
0.469296 0.479535 0.501297
0.469296 0.479535 0.501297
0.469296 0.479535 0.501297
0.469296 0.479535 0.501297
0.469296 0.479535 0.501297
0.469296 0.479535 0.501297
0.469296 0.479535 0.501297
0.469296 0.479535 0.501297
0.469296 0.479535 0.501297
0.469296 0.479535 0.501297
0.469296 0.479535 0.501297
0.469296 0.479535 0.501297
0.469296 0.479535 0.501297
0.469296 0.479535 0.501297
0.469296 0.479535 0.501297
0.469296 0.479535 0.501297
0.469296 0.479535 0.501297
0.469296 0.479535 0.501297
0.469296 0.479535 0.501297
0.469296 0.479535 0.501297
0.469296 0.479535 0.501297
0.469296 0.479535 0.501297
0.469296 0.479535 0.501297
0.469296 0.479535 0.501297
0.469296 0.479535 0.501297
0.469296 0.479535 0.501297
0.469296 0.479535 0.501297
0.469296 0.479535 0.501297
0.469296 0.479535 0.501297
0.469296 0.479535 0.501297
0.469296 0.479535 0.501297
0.469296 0.479535 0.501297
0.469296 0.479535 0.501297
0.469296 0.479535 0.501297
0.469296 0.479535 0.501297
0.469296 0.479535 0.501297
0.469296 0.479535 0.501297
0.469296 0.479535 0.501297
0.469296 0.479535 0.501297
0.469296 0.479535 0.501297
0.469296 0.479535 0.501297
0.469296 0.479535 0.501297
0.469296 0.479535 0.501297
0.469296 0.479535 0.501297
0.469296 0.479535 0.501297
0.469296 0.479535 0.501297
0.469296 0.479535 0.501297
0.469296 0.479535 0.501297
0.469296 0.479535 0.501297
0.469296 0.479535 0.501297
0.469296 0.479535 0.501297
0.469296 0.479535 0.501297
0.469296 0.479535 0.501297
0.469296 0.479535 0.501297
0.469296 0.479535 0.501297
0.469296 0.479535 0.501297
0.469296 0.479535 0.501297
0.469296 0.479535 0.501297
0.469296 0.479535 0.501297
0.469296 0.479535 0.501297
0.469296 0.479535 0.501297
0.469296 0.479535 0.501297
0.469296 0.479535 0.501297
0.469296 0.479535 0.501297
0.469296 0.479535 0.501297
0.469296 0.479535 0.501297
0.469296 0.479535 0.501297
0.469296 0.479535 0.501297
0.469296 0.479535 0.501297
0.469296 0.479535 0.501297
0.469296 0.479535 0.501297
0.469296 0.479535 0.501297
0.469296 0.479535 0.501297
0.469296 0.479535 0.501297
0.469296 0.479535 0.501297
0.469296 0.479535 0.501297
0.469296 0.479535 0.501297
0.469296 0.479535 0.501297
0.469296 0.479535 0.501297
0.469296 0.479535 0.501297
0.469296 0.479535 0.501297
0.469296 0.479535 0.501297
0.469296 0.479535 0.501297
0.469296 0.479535 0.501297
0.469296 0.479535 0.501297
0.469296 0.479535 0.501297
0.469296 0.479535 0.501297
0.469296 0.479535 0.501297
0.469296 0.479535 0.501297
0.469296 0.479535 0.501297
0.469296 0.479535 0.501297
0.469296 0.479535 0.501297
0.469296 0.479535 0.501297
0.469296 0.479535 0.501297
0.469296 0.479535 0.501297
0.469296 0.479535 0.501297
0.469296 0.479535 0.501297
0.469296 0.479535 0.501297
0.469296 0.479535 0.501297
0.469296 0.479535 0.501297
0.469296 0.479535 0.501297
0.469296 0.479535 0.501297
0.469296 0.479535 0.501297
0.469296 0.479535 0.501297
0.469296 0.479535 0.501297
0.469296 0.479535 0.501297
0.469296 0.479535 0.501297
0.469296 0.479535 0.501297
0.469296 0.479535 0.501297
0.469296 0.479535 0.501297
0.469296 0.479535 0.501297
0.469296 0.479535 0.501297
0.469296 0.479535 0.501297
0.469296 0.479535 0.501297
0.469296 0.479535 0.501297
0.469296 0.479535 0.501297
0.469296 0.479535 0.501297
0.469296 0.479535 0.501297
0.469296 0.479535 0.501297
0.469296 0.479535 0.501297
0.469296 0.479535 0.501297
0.469296 0.479535 0.501297
0.469296 0.479535 0.501297
0.469296 0.479535 0.501297
0.469296 0.479535 0.501297
0.469296 0.479535 0.501297
0.469296 0.479535 0.501297
0.469296 0.479535 0.501297
0.469296 0.479535 0.501297
0.469296 0.479535 0.501297
0.469296 0.479535 0.501297
0.469296 0.479535 0.501297
0.469296 0.479535 0.501297
0.469296 0.479535 0.501297
0.469296 0.479535 0.501297
0.469296 0.479535 0.501297
0.469296 0.479535 0.501297
0.469296 0.479535 0.501297
0.469296 0.479535 0.501297
0.469296 0.479535 0.501297
0.469296 0.479535 0.501297
0.469296 0.479535 0.501297
0.469296 0.479535 0.501297
0.469296 0.479535 0.501297
0.469296 0.479535 0.501297
0.469296 0.479535 0.501297
0.469296 0.479535 0.501297
0.469296 0.479535 0.501297
0.469296 0.479535 0.501297
0.469296 0.479535 0.501297
0.469296 0.479535 0.501297
0.469296 0.479535 0.501297
0.469296 0.479535 0.501297
0.469296 0.479535 0.501297
0.469296 0.479535 0.501297
0.469296 0.479535 0.501297
0.469296 0.479535 0.501297
0.469296 0.479535 0.501297
0.469296 0.479535 0.501297
0.469296 0.479535 0.501297
0.469296 0.479535 0.501297
0.469296 0.479535 0.501297
0.469296 0.479535 0.501297
0.469296 0.479535 0.501297
0.469296 0.479535 0.501297
0.469296 0.479535 0.501297
0.469296 0.479535 0.501297
0.469296 0.479535 0.501297
0.469296 0.479535 0.501297
0.469296 0.479535 0.501297
0.469296 0.479535 0.501297
0.469296 0.479535 0.501297
0.469296 0.479535 0.501297
0.469296 0.479535 0.501297
0.469296 0.479535 0.501297
0.469296 0.479535 0.501297
0.469296 0.479535 0.501297
0.469296 0.479535 0.501297
0.469296 0.479535 0.501297
0.469296 0.479535 0.501297
0.469296 0.479535 0.501297
0.469296 0.479535 0.501297
0.469296 0.479535 0.501297
0.469296 0.479535 0.501297
0.469296 0.479535 0.501297
0.469296 0.479535 0.501297
0.469296 0.479535 0.501297
0.469296 0.479535 0.501297
0.469296 0.479535 0.501297
0.469296 0.479535 0.501297
0.469296 0.479535 0.501297
0.469296 0.479535 0.501297
0.469296 0.479535 0.501297
0.469296 0.479535 0.501297
0.469296 0.479535 0.501297
0.469296 0.479535 0.501297
0.469296 0.479535 0.501297
0.469296 0.479535 0.501297
0.469296 0.479535 0.501297
0.469296 0.479535 0.501297
0.469296 0.479535 0.501297
0.469296 0.479535 0.501297
0.469296 0.479535 0.501297
0.469296 0.479535 0.501297
0.469296 0.479535 0.501297
0.469296 0.479535 0.501297
0.469296 0.479535 0.501297
0.469296 0.479535 0.501297
0.469296 0.479535 0.501297
0.469296 0.479535 0.501297
0.469296 0.479535 0.501297
0.469296 0.479535 0.501297
0.469296 0.479535 0.501297
0.469296 0.479535 0.501297
0.469296 0.479535 0.501297
0.469296 0.479535 0.501297
0.469296 0.479535 0.501297
0.469296 0.479535 0.501297
0.469296 0.479535 0.501297
0.469296 0.479535 0.501297
0.469296 0.479535 0.501297
0.469296 0.479535 0.501297
0.469296 0.479535 0.501297
0.469296 0.479535 0.501297
0.469296 0.479535 0.501297
0.469296 0.479535 0.501297
0.469296 0.479535 0.501297
0.469296 0.479535 0.501297
0.469296 0.479535 0.501297
0.469296 0.479535 0.501297
0.469296 0.479535 0.501297
0.469296 0.479535 0.501297
0.469296 0.479535 0.501297
0.469296 0.479535 0.501297
0.469296 0.479535 0.501297
0.469296 0.479535 0.501297
0.469296 0.479535 0.501297
0.469296 0.479535 0.501297
0.469296 0.479535 0.501297
0.469296 0.479535 0.501297
0.469296 0.479535 0.501297
0.469296 0.479535 0.501297
0.469296 0.479535 0.501297
0.469296 0.479535 0.501297
0.469296 0.479535 0.501297
0.469296 0.479535 0.501297
0.469296 0.479535 0.501297
0.469296 0.479535 0.501297
0.469296 0.479535 0.501297
0.469296 0.479535 0.501297
0.469296 0.479535 0.501297
0.469296 0.479535 0.501297
0.469296 0.479535 0.501297
0.469296 0.479535 0.501297
0.469296 0.479535 0.501297
0.469296 0.479535 0.501297
0.469296 0.479535 0.501297
0.469296 0.479535 0.501297
0.469296 0.479535 0.501297
0.469296 0.479535 0.501297
0.469296 0.479535 0.501297
0.469296 0.479535 0.501297
0.469296 0.479535 0.501297
0.469296 0.479535 0.501297
0.469296 0.479535 0.501297
0.469296 0.479535 0.501297
0.469296 0.479535 0.501297
0.469296 0.479535 0.501297
0.469296 0.479535 0.501297
0.469296 0.479535 0.501297
0.469296 0.479535 0.501297
0.469296 0.479535 0.501297
0.469296 0.479535 0.501297
0.469296 0.479535 0.501297
0.469296 0.479535 0.501297
0.469296 0.479535 0.501297
0.469296 0.479535 0.501297
0.469296 0.479535 0.501297
0.469296 0.479535 0.501297
0.469296 0.479535 0.501297
0.469296 0.479535 0.501297
0.469296 0.479535 0.501297
0.469296 0.479535 0.501297
0.469296 0.479535 0.501297
0.469296 0.479535 0.501297
0.469296 0.479535 0.501297
0.469296 0.479535 0.501297
0.469296 0.479535 0.501297
0.469296 0.479535 0.501297
0.469296 0.479535 0.501297
0.469296 0.479535 0.501297
0.469296 0.479535 0.501297
0.469296 0.479535 0.501297
0.469296 0.479535 0.501297
0.469296 0.479535 0.501297
0.469296 0.479535 0.501297
0.469296 0.479535 0.501297
0.469296 0.479535 0.501297
0.469296 0.479535 0.501297
0.469296 0.479535 0.501297
0.469296 0.479535 0.501297
0.469296 0.479535 0.501297
0.469296 0.479535 0.501118
0.469296 0.479501 0.500872
0.469296 0.479428 0.500625
0.469225 0.479356 0.500378
0.469051 0.479283 0.500131
0.468876 0.479211 0.499885
0.468702 0.479138 0.499638
0.468528 0.479066 0.499391
0.468353 0.478993 0.499144
0.468179 0.478920 0.498898
0.468004 0.478848 0.498651
0.467830 0.478775 0.498404
0.467656 0.478703 0.498157
0.467481 0.478630 0.497910
0.467307 0.478557 0.497664
0.467133 0.478485 0.497417
0.466958 0.478412 0.497170
0.466784 0.478340 0.496923
0.466609 0.478267 0.496677
0.466435 0.478194 0.496430
0.466261 0.478122 0.496183
0.466086 0.478049 0.495936
0.465912 0.477977 0.495690
0.465737 0.477904 0.495443
0.465563 0.477831 0.495196
0.465389 0.477759 0.494949
0.465214 0.477686 0.494703
0.465040 0.477614 0.494456
0.464866 0.477541 0.494209
0.464691 0.477468 0.493962
0.464517 0.477396 0.493716
0.464342 0.477323 0.493469
0.464168 0.477251 0.493446
0.463994 0.477361 0.493480
0.463819 0.477568 0.493515
0.463760 0.477774 0.493550
0.463837 0.477981 0.493585
0.463914 0.478188 0.493620
0.463991 0.478394 0.493655
0.464067 0.478601 0.493689
0.464144 0.478808 0.493724
0.464221 0.479014 0.493759
0.464297 0.479221 0.493794
0.464374 0.479427 0.493829
0.464451 0.479634 0.493864
0.464527 0.479841 0.493898
0.464604 0.480047 0.493933
0.464681 0.480254 0.493968
0.464757 0.480461 0.494003
0.464834 0.480667 0.494038
0.464911 0.480874 0.494072
0.464987 0.481080 0.494107
0.465064 0.481287 0.494142
0.465141 0.481494 0.494177
0.465218 0.481700 0.494212
0.465294 0.481907 0.494247
0.465371 0.482114 0.494281
0.465448 0.482320 0.494316
0.465524 0.482527 0.494351
0.465601 0.482733 0.494386
0.465678 0.482940 0.494421
0.465754 0.483147 0.494456
0.465831 0.483353 0.494490
0.465908 0.483560 0.494525
0.465984 0.483767 0.494634
0.466061 0.484191 0.494755
0.466138 0.484655 0.494876
0.466317 0.485119 0.494997
0.466596 0.485583 0.495118
0.466874 0.486048 0.495240
0.467152 0.486512 0.495361
0.467430 0.486976 0.495482
0.467708 0.487440 0.495603
0.467986 0.487905 0.495724
0.468264 0.488369 0.495845
0.468542 0.488833 0.495966
0.468820 0.489297 0.496087
0.469098 0.489761 0.496208
0.469376 0.490226 0.496329
0.469654 0.490690 0.496450
0.469932 0.491154 0.496571
0.470210 0.491618 0.496692
0.470489 0.492083 0.496813
0.470767 0.492547 0.496934
0.471045 0.493011 0.497055
0.471323 0.493475 0.497176
0.471601 0.493940 0.497297
0.471879 0.494404 0.497418
0.472157 0.494868 0.497539
0.472435 0.495332 0.497660
0.472713 0.495796 0.497781
0.472991 0.496261 0.497902
0.473269 0.496725 0.498023
0.473547 0.497189 0.498144
0.473825 0.497653 0.498265
0.474103 0.498118 0.498386
0.474382 0.498592 0.498710
0.474660 0.499377 0.499050
0.474938 0.500161 0.499389
0.475361 0.500945 0.499729
0.475897 0.501729 0.500068
0.476433 0.502514 0.500407
0.476970 0.503298 0.500747
0.477506 0.504082 0.501086
0.478042 0.504866 0.501425
0.478578 0.505650 0.501765
0.479114 0.506435 0.502104
0.479651 0.507219 0.502443
0.480187 0.508003 0.502783
0.480723 0.508787 0.503122
0.481259 0.509572 0.503462
0.481795 0.510356 0.503801
0.482332 0.511140 0.504140
0.482868 0.511924 0.504480
0.483404 0.512708 0.504819
0.483940 0.513493 0.505158
0.484476 0.514277 0.505498
0.485013 0.515061 0.505837
0.485549 0.515845 0.506177
0.486085 0.516630 0.506516
0.486621 0.517414 0.506855
0.487157 0.518198 0.507195
0.487694 0.518982 0.507534
0.488230 0.519766 0.507873
0.488766 0.520551 0.508213
0.489302 0.521335 0.508552
0.489839 0.522119 0.508892
0.490375 0.522903 0.509231
0.490911 0.523852 0.510274
0.491447 0.525379 0.511317
0.491983 0.526906 0.512360
0.493076 0.528433 0.513403
0.494518 0.529960 0.514446
0.495961 0.531487 0.515489
0.497403 0.533014 0.516532
0.498846 0.534541 0.517575
0.500288 0.536068 0.518618
0.501730 0.537595 0.519661
0.503173 0.539122 0.520704
0.504615 0.540649 0.521747
0.506058 0.542176 0.522790
0.507500 0.543703 0.523833
0.508942 0.545230 0.524876
0.510385 0.546757 0.525918
0.511827 0.548284 0.526961
0.513270 0.549811 0.528004
0.514712 0.551338 0.529047
0.516155 0.552865 0.530090
0.517597 0.554392 0.531133
0.519039 0.555919 0.532176
0.520482 0.557446 0.533219
0.521924 0.558973 0.534262
0.523367 0.560500 0.535305
0.524809 0.562027 0.536348
0.526251 0.563554 0.537391
0.527694 0.565081 0.538434
0.529136 0.566608 0.539477
0.530579 0.568135 0.540520
0.532021 0.569662 0.541563
0.533464 0.571189 0.542723
0.534906 0.573234 0.545469
0.536348 0.576021 0.548216
0.537791 0.578809 0.550962
0.540460 0.581596 0.553708
0.543747 0.584384 0.556454
0.547035 0.587171 0.559200
0.550322 0.589959 0.561947
0.553609 0.592746 0.564693
0.556896 0.595534 0.567439
0.560183 0.598321 0.570185
0.563470 0.601108 0.572932
0.566758 0.603896 0.575678
0.570045 0.606683 0.578424
0.573332 0.609471 0.581170
0.576619 0.612258 0.583916
0.579906 0.615046 0.586663
0.583193 0.617833 0.589409
0.586481 0.620621 0.592155
0.589768 0.623408 0.594901
0.593055 0.626196 0.597648
0.596342 0.628983 0.600394
0.599629 0.631771 0.603140
0.602916 0.634558 0.605886
0.606204 0.637346 0.608633
0.609491 0.640133 0.611379
0.612778 0.642921 0.614125
0.616065 0.645708 0.616871
0.619352 0.648496 0.619617
0.622639 0.651283 0.622364
0.625927 0.654071 0.625110
0.629214 0.656858 0.627856
0.632501 0.659646 0.630795
0.635788 0.663009 0.634941
0.639075 0.666758 0.639088
0.642362 0.670507 0.643234
0.646301 0.674256 0.647381
0.650497 0.678005 0.651527
0.654693 0.681754 0.655673
0.658889 0.685503 0.659820
0.663085 0.689252 0.663966
0.667281 0.693001 0.668113
0.671477 0.696750 0.672259
0.675673 0.700499 0.676406
0.679869 0.704248 0.680552
0.684066 0.707997 0.684699
0.688262 0.711746 0.688845
0.692458 0.715494 0.692992
0.696654 0.719243 0.697138
0.700850 0.722992 0.701284
0.705046 0.726741 0.705431
0.709242 0.730490 0.709577
0.713438 0.734239 0.713724
0.717634 0.737988 0.717870
0.721830 0.741737 0.722017
0.726027 0.745486 0.726163
0.730223 0.749235 0.730310
0.734419 0.752984 0.734456
0.738615 0.756733 0.738603
0.742811 0.760482 0.742749
0.747007 0.764231 0.746896
0.751203 0.767980 0.751042
0.755399 0.771729 0.755188
0.759595 0.775478 0.759335
0.763791 0.779227 0.763265
0.767987 0.782281 0.766361
0.772184 0.785148 0.769457
0.776380 0.788015 0.772552
0.779606 0.790883 0.775648
0.782539 0.793750 0.778744
0.785472 0.796617 0.781840
0.788405 0.799484 0.784936
0.791339 0.802351 0.788032
0.794272 0.805219 0.791127
0.797205 0.808086 0.794223
0.800138 0.810953 0.797319
0.803071 0.813820 0.800415
0.806004 0.816687 0.803511
0.808937 0.819554 0.806607
0.811870 0.822422 0.809703
0.814803 0.825289 0.812798
0.817736 0.828156 0.815894
0.820669 0.831023 0.818990
0.823602 0.833890 0.822086
0.826535 0.836758 0.825182
0.829468 0.839625 0.828278
0.832401 0.842492 0.831373
0.835335 0.845359 0.834469
0.838268 0.848226 0.837565
0.841201 0.851093 0.840661
0.844134 0.853961 0.843757
0.847067 0.856828 0.846853
0.850000 0.859695 0.849948
0.852933 0.862562 0.853044
0.855866 0.865429 0.856140
0.858799 0.868297 0.859236
0.861732 0.871164 0.862017
0.864665 0.873020 0.863966
0.867598 0.874851 0.865916
0.870531 0.876683 0.867865
0.872663 0.878514 0.869814
0.874617 0.880345 0.871764
0.876571 0.882177 0.873713
0.878526 0.884008 0.875663
0.880480 0.885840 0.877612
0.882434 0.887671 0.879561
0.884389 0.889502 0.881511
0.886343 0.891334 0.883460
0.888297 0.893165 0.885410
0.890252 0.894997 0.887359
0.892206 0.896828 0.889309
0.894160 0.898659 0.891258
0.896114 0.900491 0.893207
0.898069 0.902322 0.895157
0.900023 0.904153 0.897106
0.901977 0.905985 0.899056
0.903932 0.907816 0.901005
0.905886 0.909648 0.902954
0.907840 0.911479 0.904904
0.909794 0.913310 0.906853
0.911749 0.915142 0.908803
0.913703 0.916973 0.910752
0.915657 0.918805 0.912701
0.917612 0.920636 0.914651
0.919566 0.922467 0.916600
0.921520 0.924299 0.918550
0.923474 0.926130 0.920499
0.925429 0.927961 0.922448
0.927383 0.929685 0.924128
0.929337 0.930864 0.925292
0.931292 0.932042 0.926456
0.933246 0.933220 0.927620
0.934487 0.934399 0.928784
0.935622 0.935577 0.929947
0.936757 0.936755 0.931111
0.937892 0.937934 0.932275
0.939027 0.939112 0.933439
0.940162 0.940290 0.934603
0.941297 0.941469 0.935767
0.942432 0.942647 0.936931
0.943567 0.943825 0.938095
0.944702 0.945004 0.939259
0.945837 0.946182 0.940422
0.946972 0.947360 0.941586
0.948107 0.948539 0.942750
0.949242 0.949717 0.943914
0.950377 0.950895 0.945078
0.951511 0.952074 0.946242
0.952646 0.953252 0.947406
0.953781 0.954430 0.948570
0.954916 0.955609 0.949734
0.956051 0.956787 0.950898
0.957186 0.957965 0.952061
0.958321 0.959144 0.953225
0.959456 0.960322 0.954389
0.960591 0.961500 0.955553
0.961726 0.962679 0.956717
0.962861 0.963857 0.957881
0.963996 0.965035 0.959045
0.965131 0.966214 0.960209
0.966266 0.967204 0.961165
0.967401 0.967852 0.961824
0.968536 0.968500 0.962483
0.969670 0.969148 0.963142
0.970310 0.969795 0.963801
0.970908 0.970443 0.964461
0.971505 0.971091 0.965120
0.972103 0.971738 0.965779
0.972700 0.972386 0.966438
0.973298 0.973034 0.967098
0.973895 0.973681 0.967757
0.974492 0.974329 0.968416
0.975090 0.974977 0.969075
0.975687 0.975624 0.969734
0.976285 0.976272 0.970394
0.976882 0.976920 0.971053
0.977480 0.977567 0.971712
0.978077 0.978215 0.972371
0.978675 0.978863 0.973031
0.979272 0.979510 0.973690
0.979870 0.980158 0.974349
0.980467 0.980806 0.975008
0.981065 0.981454 0.975667
0.981662 0.982101 0.976327
0.982259 0.982749 0.976986
0.982857 0.983397 0.977645
0.983454 0.984044 0.978304
0.984052 0.984692 0.978964
0.984649 0.985340 0.979623
0.985247 0.985987 0.980282
0.985844 0.986635 0.980941
0.986442 0.987283 0.981601
0.987039 0.987712 0.982098
0.987637 0.987957 0.982421
0.988234 0.988202 0.982744
0.988832 0.988447 0.983067
0.989059 0.988693 0.983390
0.989276 0.988938 0.983714
0.989494 0.989183 0.984037
0.989711 0.989428 0.984360
0.989928 0.989673 0.984683
0.990145 0.989918 0.985006
0.990362 0.990163 0.985329
0.990580 0.990408 0.985652
0.990797 0.990653 0.985975
0.991014 0.990898 0.986298
0.991231 0.991143 0.986621
0.991448 0.991388 0.986944
0.991666 0.991634 0.987267
0.991883 0.991879 0.987591
0.992100 0.992124 0.987914
0.992317 0.992369 0.988237
0.992534 0.992614 0.988560
0.992752 0.992859 0.988883
0.992969 0.993104 0.989206
0.993186 0.993349 0.989529
0.993403 0.993594 0.989852
0.993620 0.993839 0.990175
0.993838 0.994084 0.990498
0.994055 0.994329 0.990821
0.994272 0.994575 0.991144
0.994489 0.994820 0.991468
0.994707 0.995065 0.991791
0.994924 0.995310 0.992114
0.995141 0.995453 0.992335
0.995358 0.995559 0.992474
0.995575 0.995664 0.992613
0.995790 0.995770 0.992752
0.995887 0.995876 0.992890
0.995983 0.995981 0.993029
0.996080 0.996087 0.993168
0.996177 0.996193 0.993306
0.996274 0.996298 0.993445
0.996371 0.996404 0.993584
0.996467 0.996509 0.993723
0.996564 0.996615 0.993861
0.996661 0.996721 0.994000
0.996758 0.996826 0.994139
0.996855 0.996932 0.994277
0.996952 0.997038 0.994416
0.997048 0.997143 0.994555
0.997145 0.997249 0.994694
0.997242 0.997355 0.994832
0.997339 0.997460 0.994971
0.997436 0.997566 0.995110
0.997532 0.997671 0.995248
0.997629 0.997777 0.995387
0.997726 0.997883 0.995526
0.997823 0.997988 0.995665
0.997920 0.998094 0.995803
0.998017 0.998200 0.995942
0.998113 0.998305 0.996081
0.998210 0.998411 0.996219
0.998307 0.998517 0.996358
0.998404 0.998622 0.996497
0.998501 0.998728 0.996635
0.998598 0.998755 0.996724
0.998694 0.998776 0.996782
0.998791 0.998796 0.996840
0.998882 0.998817 0.996898
0.998898 0.998837 0.996956
0.998914 0.998858 0.997014
0.998930 0.998879 0.997072
0.998946 0.998899 0.997130
0.998962 0.998920 0.997188
0.998978 0.998940 0.997246
0.998994 0.998961 0.997304
0.999009 0.998981 0.997362
0.999025 0.999002 0.997420
0.999041 0.999022 0.997478
0.999057 0.999043 0.997536
0.999073 0.999063 0.997594
0.999089 0.999084 0.997652
0.999105 0.999104 0.997710
0.999121 0.999125 0.997768
0.999137 0.999146 0.997826
0.999153 0.999166 0.997884
0.999169 0.999187 0.997942
0.999185 0.999207 0.998000
0.999201 0.999228 0.998058
0.999217 0.999248 0.998116
0.999233 0.999269 0.998174
0.999249 0.999289 0.998232
0.999265 0.999310 0.998290
0.999280 0.999330 0.998348
0.999296 0.999351 0.998406
0.999312 0.999372 0.998464
0.999328 0.999391 0.998522
0.999344 0.999404 0.998562
0.999360 0.999417 0.998592
0.999376 0.999430 0.998623
0.999392 0.999442 0.998654
0.999404 0.999455 0.998684
0.999417 0.999468 0.998715
0.999430 0.999481 0.998746
0.999443 0.999494 0.998777
0.999455 0.999506 0.998807
0.999468 0.999519 0.998838
0.999481 0.999532 0.998869
0.999493 0.999545 0.998899
0.999506 0.999557 0.998930
0.999519 0.999570 0.998961
0.999532 0.999583 0.998991
0.999544 0.999596 0.999022
0.999557 0.999609 0.999053
0.999570 0.999621 0.999084
0.999583 0.999634 0.999114
0.999595 0.999647 0.999145
0.999608 0.999660 0.999176
0.999621 0.999673 0.999206
0.999633 0.999685 0.999237
0.999646 0.999698 0.999268
0.999659 0.999711 0.999299
0.999672 0.999724 0.999329
