assets/luts/Kodak Ultra Endura.cube
TITLE "DiVERE Kodak Ultra Endura"
LUT_1D_SIZE 1024
DOMAIN_MIN 0.0 0.0 0.0
DOMAIN_MAX 1.0 1.0 1.0

0.475913 0.496524 0.503380
0.475913 0.496524 0.503380
0.475913 0.496524 0.503380
0.475913 0.496524 0.503380
0.475913 0.496524 0.503380
0.475913 0.496524 0.503380
0.475913 0.496524 0.503380
0.475913 0.496524 0.503380
0.475913 0.496524 0.503380
0.475913 0.496524 0.503380
0.475913 0.496524 0.503380
0.475913 0.496524 0.503380
0.475913 0.496524 0.503380
0.475913 0.496524 0.503380
0.475913 0.496524 0.503380
0.475913 0.496524 0.503380
0.475913 0.496524 0.503380
0.475913 0.496524 0.503380
0.475913 0.496524 0.503380
0.475913 0.496524 0.503380
0.475913 0.496524 0.503380
0.475913 0.496524 0.503380
0.475913 0.496524 0.503380
0.475913 0.496524 0.503380
0.475913 0.496524 0.503380
0.475913 0.496524 0.503380
0.475913 0.496524 0.503380
0.475913 0.496524 0.503380
0.475913 0.496524 0.503380
0.475913 0.496524 0.503380
0.475913 0.496524 0.503380
0.475913 0.496524 0.503380
0.475913 0.496524 0.503380
0.475913 0.496524 0.503380
0.475913 0.496524 0.503380
0.475913 0.496524 0.503380
0.475913 0.496524 0.503380
0.475913 0.496524 0.503380
0.475913 0.496524 0.503380
0.475913 0.496524 0.503380
0.475913 0.496524 0.503380
0.475913 0.496524 0.503380
0.475913 0.496524 0.503380
0.475913 0.496524 0.503380
0.475913 0.496524 0.503380
0.475913 0.496524 0.503380
0.475913 0.496524 0.503380
0.475913 0.496524 0.503380
0.475913 0.496524 0.503380
0.475913 0.496524 0.503380
0.475913 0.496524 0.503380
0.475913 0.496524 0.503380
0.475913 0.496524 0.503380
0.475913 0.496524 0.503380
0.475913 0.496524 0.503380
0.475913 0.496524 0.503380
0.475913 0.496524 0.503380
0.475913 0.496524 0.503380
0.475913 0.496524 0.503380
0.475913 0.496524 0.503380
0.475913 0.496524 0.503380
0.475913 0.496524 0.503380
0.475913 0.496524 0.503380
0.475913 0.496524 0.503380
0.475913 0.496524 0.503380
0.475913 0.496524 0.503380
0.475913 0.496524 0.503380
0.475913 0.496524 0.503380
0.475913 0.496524 0.503380
0.475913 0.496524 0.503380
0.475913 0.496524 0.503380
0.475913 0.496524 0.503380
0.475913 0.496524 0.503380
0.475913 0.496524 0.503380
0.475913 0.496524 0.503380
0.475913 0.496524 0.503380
0.475913 0.496524 0.503380
0.475913 0.496524 0.503380
0.475913 0.496524 0.503380
0.475913 0.496524 0.503380
0.475913 0.496524 0.503380
0.475913 0.496524 0.503380
0.475913 0.496524 0.503380
0.475913 0.496524 0.503380
0.475913 0.496524 0.503380
0.475913 0.496524 0.503380
0.475913 0.496524 0.503380
0.475913 0.496524 0.503380
0.475913 0.496524 0.503380
0.475913 0.496524 0.503380
0.475913 0.496524 0.503380
0.475913 0.496524 0.503380
0.475913 0.496524 0.503380
0.475913 0.496524 0.503380
0.475913 0.496524 0.503380
0.475913 0.496524 0.503380
0.475913 0.496524 0.503380
0.475913 0.496524 0.503380
0.475913 0.496524 0.503380
0.475913 0.496524 0.503380
0.475913 0.496524 0.503380
0.475913 0.496524 0.503380
0.475913 0.496524 0.503380
0.475913 0.496524 0.503380
0.475913 0.496524 0.503380
0.475913 0.496524 0.503380
0.475913 0.496524 0.503380
0.475913 0.496524 0.503380
0.475913 0.496524 0.503380
0.475913 0.496524 0.503380
0.475913 0.496524 0.503380
0.475913 0.496524 0.503380
0.475913 0.496524 0.503380
0.475913 0.496524 0.503380
0.475913 0.496524 0.503380
0.475913 0.496524 0.503380
0.475913 0.496524 0.503380
0.475913 0.496524 0.503380
0.475913 0.496524 0.503380
0.475913 0.496524 0.503380
0.475913 0.496524 0.503380
0.475913 0.496524 0.503380
0.475913 0.496524 0.503380
0.475913 0.496524 0.503380
0.475913 0.496524 0.503380
0.475913 0.496524 0.503380
0.475913 0.496524 0.503380
0.475913 0.496524 0.503380
0.475913 0.496524 0.503380
0.475913 0.496524 0.503380
0.475913 0.496524 0.503380
0.475913 0.496524 0.503380
0.475913 0.496524 0.503380
0.475913 0.496524 0.503380
0.475913 0.496524 0.503380
0.475913 0.496524 0.503380
0.475913 0.496524 0.503380
0.475913 0.496524 0.503380
0.475913 0.496524 0.503380
0.475913 0.496524 0.503380
0.475913 0.496524 0.503380
0.475913 0.496524 0.503380
0.475913 0.496524 0.503380
0.475913 0.496524 0.503380
0.475913 0.496524 0.503380
0.475913 0.496524 0.503380
0.475913 0.496524 0.503380
0.475913 0.496524 0.503380
0.475913 0.496524 0.503380
0.475913 0.496524 0.503380
0.475913 0.496524 0.503380
0.475913 0.496524 0.503380
0.475913 0.496524 0.503380
0.475913 0.496524 0.503380
0.475913 0.496524 0.503380
0.475913 0.496524 0.503380
0.475913 0.496524 0.503380
0.475913 0.496524 0.503380
0.475913 0.496524 0.503380
0.475913 0.496524 0.503380
0.475913 0.496524 0.503380
0.475913 0.496524 0.503380
0.475913 0.496524 0.503380
0.475913 0.496524 0.503380
0.475913 0.496524 0.503380
0.475913 0.496524 0.503380
0.475913 0.496524 0.503380
0.475913 0.496524 0.503380
0.475913 0.496524 0.503380
0.475913 0.496524 0.503380
0.475913 0.496524 0.503380
0.475913 0.496524 0.503380
0.475913 0.496524 0.503380
0.475913 0.496524 0.503380
0.475913 0.496524 0.503380
0.475913 0.496524 0.503380
0.475913 0.496524 0.503380
0.475913 0.496524 0.503380
0.475913 0.496524 0.503380
0.475913 0.496524 0.503380
0.475913 0.496524 0.503380
0.475913 0.496524 0.503380
0.475913 0.496524 0.503380
0.475913 0.496524 0.503380
0.475913 0.496524 0.503380
0.475913 0.496524 0.503380
0.475913 0.496524 0.503380
0.475913 0.496524 0.503380
0.475913 0.496524 0.503380
0.475913 0.496524 0.503380
0.475913 0.496524 0.503380
0.475913 0.496524 0.503380
0.475913 0.496524 0.503380
0.475913 0.496524 0.503380
0.475913 0.496524 0.503380
0.475913 0.496524 0.503380
0.475913 0.496524 0.503380
0.475913 0.496524 0.503380
0.475913 0.496524 0.503380
0.475913 0.496524 0.503380
0.475913 0.496524 0.503380
0.475913 0.496524 0.503380
0.475913 0.496524 0.503380
0.475913 0.496524 0.503380
0.475913 0.496524 0.503380
0.475913 0.496524 0.503380
0.475913 0.496524 0.503380
0.475913 0.496524 0.503380
0.475913 0.496524 0.503380
0.475913 0.496524 0.503380
0.475913 0.496524 0.503380
0.475913 0.496524 0.503380
0.475913 0.496524 0.503380
0.475913 0.496524 0.503380
0.475913 0.496524 0.503380
0.475913 0.496524 0.503380
0.475913 0.496524 0.503380
0.475913 0.496524 0.503380
0.475913 0.496524 0.503380
0.475913 0.496524 0.503380
0.475913 0.496524 0.503380
0.475913 0.496524 0.503380
0.475913 0.496524 0.503380
0.475913 0.496524 0.503380
0.475913 0.496524 0.503380
0.475913 0.496524 0.503380
0.475913 0.496524 0.503380
0.475913 0.496524 0.503380
0.475913 0.496524 0.503380
0.475913 0.496524 0.503380
0.475913 0.496524 0.503380
0.475913 0.496524 0.503380
0.475913 0.496524 0.503380
0.475913 0.496524 0.503380
0.475913 0.496524 0.503380
0.475913 0.496524 0.503380
0.475913 0.496524 0.503380
0.475913 0.496524 0.503380
0.475913 0.496524 0.503380
0.475913 0.496524 0.503380
0.475913 0.496524 0.503380
0.475913 0.496524 0.503380
0.475913 0.496524 0.503380
0.475913 0.496524 0.503380
0.475913 0.496524 0.503380
0.475913 0.496524 0.503380
0.475913 0.496524 0.503380
0.475913 0.496524 0.503380
0.475913 0.496524 0.503380
0.475913 0.496524 0.503380
0.475913 0.496524 0.503380
0.475913 0.496524 0.503380
0.475913 0.496524 0.503380
0.475913 0.496524 0.503380
0.475913 0.496524 0.503380
0.475913 0.496524 0.503380
0.475913 0.496524 0.503380
0.475913 0.496524 0.503380
0.475913 0.496524 0.503380
0.475913 0.496524 0.503380
0.475913 0.496524 0.503380
0.475913 0.496524 0.503380
0.475913 0.496524 0.503380
0.475913 0.496524 0.503380
0.475913 0.496524 0.503380
0.475913 0.496524 0.503380
0.475913 0.496524 0.503380
0.475913 0.496524 0.503380
0.475913 0.496524 0.503380
0.475913 0.496524 0.503380
0.475913 0.496524 0.503380
0.475913 0.496524 0.503380
0.475913 0.496524 0.503380
0.475913 0.496524 0.503380
0.475913 0.496524 0.503380
0.475913 0.496524 0.503380
0.475913 0.496524 0.503380
0.475913 0.496524 0.503380
0.475913 0.496524 0.503380
0.475913 0.496524 0.503380
0.475913 0.496524 0.503380
0.475913 0.496524 0.503380
0.475913 0.496524 0.503380
0.475913 0.496524 0.503380
0.475913 0.496524 0.503380
0.475913 0.496524 0.503380
0.475913 0.496524 0.503380
0.475913 0.496524 0.503380
0.475913 0.496524 0.503380
0.475913 0.496524 0.503380
0.475913 0.496524 0.503380
0.475913 0.496524 0.503380
0.475913 0.496524 0.503380
0.475913 0.496524 0.503380
0.475913 0.496524 0.503380
0.475913 0.496524 0.503380
0.475913 0.496524 0.503380
0.475913 0.496524 0.503380
0.475913 0.496524 0.503380
0.475913 0.496524 0.503380
0.475913 0.496524 0.503380
0.475913 0.496524 0.503380
0.475913 0.496524 0.503380
0.475913 0.496524 0.503380
0.475913 0.496524 0.503380
0.475913 0.496524 0.503380
0.475913 0.496524 0.503380
0.475913 0.496524 0.503380
0.475913 0.496524 0.503380
0.475913 0.496524 0.503380
0.475913 0.496524 0.503380
0.475913 0.496524 0.503380
0.475913 0.496524 0.503380
0.475913 0.496524 0.503380
0.475913 0.496524 0.503380
0.475913 0.496524 0.503380
0.475913 0.496524 0.503380
0.475913 0.496524 0.503380
0.475913 0.496524 0.503380
0.475913 0.496524 0.503380
0.475913 0.496524 0.503380
0.475913 0.496524 0.503380
0.475913 0.496524 0.503380
0.475913 0.496524 0.503380
0.475913 0.496524 0.503380
0.475913 0.496524 0.503380
0.475913 0.496524 0.503380
0.475913 0.496524 0.503380
0.475913 0.496524 0.503380
0.475913 0.496524 0.503380
0.475913 0.496524 0.503380
0.475913 0.496524 0.503380
0.475913 0.496524 0.503380
0.475913 0.496524 0.503380
0.475913 0.496524 0.503380
0.475913 0.496524 0.503380
0.475913 0.496524 0.503380
0.475913 0.496524 0.503380
0.475913 0.496524 0.503380
0.475913 0.496524 0.503380
0.475913 0.496524 0.503380
0.475913 0.496524 0.503380
0.475913 0.496524 0.503380
0.475913 0.496524 0.503380
0.475913 0.496524 0.503380
0.475913 0.496524 0.503380
0.475913 0.496524 0.503380
0.475913 0.496524 0.503380
0.475913 0.496524 0.503380
0.475913 0.496524 0.503380
0.475913 0.496524 0.503380
0.475913 0.496524 0.503380
0.475913 0.496524 0.503380
0.475913 0.496524 0.503380
0.475913 0.496524 0.503380
0.475913 0.496524 0.503380
0.475913 0.496524 0.503380
0.475913 0.496524 0.503380
0.475913 0.496524 0.503380
0.475913 0.496524 0.503380
0.475913 0.496524 0.503380
0.475913 0.496524 0.503380
0.475913 0.496524 0.503380
0.475913 0.496524 0.503380
0.475913 0.496524 0.503380
0.475913 0.496524 0.503380
0.475913 0.496524 0.503380
0.475913 0.496524 0.503380
0.475913 0.496524 0.503380
0.475913 0.496524 0.503380
0.475913 0.496524 0.503380
0.475913 0.496524 0.503380
0.475913 0.496524 0.503380
0.475913 0.496524 0.503380
0.475913 0.496524 0.503380
0.475913 0.496524 0.503380
0.475913 0.496524 0.503380
0.475913 0.496524 0.503380
0.475913 0.496524 0.503380
0.475913 0.496524 0.503380
0.475913 0.496524 0.503380
0.475913 0.496524 0.503380
0.475913 0.496524 0.503380
0.475913 0.496524 0.503380
0.475913 0.496524 0.503380
0.475913 0.496524 0.503380
0.475913 0.496524 0.503380
0.475913 0.496524 0.503380
0.475913 0.496524 0.503380
0.475913 0.496524 0.503380
0.475913 0.496524 0.503380
0.475913 0.496524 0.503380
0.475913 0.496524 0.503380
0.475913 0.496524 0.503380
0.475913 0.496524 0.503380
0.475913 0.496524 0.503380
0.475913 0.496524 0.503380
0.475913 0.496524 0.503380
0.475913 0.496524 0.503380
0.475913 0.496524 0.503380
0.475913 0.496524 0.503380
0.475913 0.496524 0.503380
0.475913 0.496524 0.503380
0.475913 0.496524 0.503380
0.475913 0.496524 0.503380
0.475913 0.496524 0.503380
0.475913 0.496524 0.503380
0.475913 0.496524 0.503380
0.475913 0.496524 0.503380
0.475913 0.496524 0.503380
0.475913 0.496524 0.503380
0.475913 0.496524 0.503380
0.475913 0.496524 0.503380
0.475913 0.496524 0.503380
0.475913 0.496524 0.503380
0.475913 0.496541 0.503380
0.475913 0.496578 0.503380
0.475913 0.496615 0.503380
0.475917 0.496652 0.503380
0.475958 0.496690 0.503380
0.475998 0.496727 0.503380
0.476038 0.496764 0.503380
0.476079 0.496802 0.503377
0.476119 0.496839 0.503366
0.476159 0.496876 0.503356
0.476200 0.496913 0.503346
0.476240 0.496951 0.503336
0.476280 0.496988 0.503326
0.476321 0.497025 0.503316
0.476361 0.497063 0.503306
0.476401 0.497100 0.503296
0.476442 0.497137 0.503286
0.476482 0.497174 0.503276
0.476522 0.497212 0.503266
0.476563 0.497249 0.503256
0.476603 0.497286 0.503246
0.476643 0.497324 0.503236
0.476684 0.497361 0.503225
0.476724 0.497398 0.503215
0.476764 0.497435 0.503205
0.476805 0.497473 0.503195
0.476845 0.497510 0.503185
0.476885 0.497547 0.503175
0.476926 0.497585 0.503165
0.476966 0.497622 0.503155
0.477007 0.497659 0.503145
0.477047 0.497696 0.503135
0.477087 0.497771 0.503125
0.477128 0.497874 0.503115
0.477168 0.497976 0.503105
0.477250 0.498079 0.503094
0.477392 0.498181 0.503084
0.477534 0.498284 0.503074
0.477676 0.498387 0.503064
0.477818 0.498489 0.503105
0.477960 0.498592 0.503159
0.478102 0.498694 0.503214
0.478244 0.498797 0.503269
0.478386 0.498899 0.503323
0.478528 0.499002 0.503378
0.478670 0.499104 0.503433
0.478812 0.499207 0.503487
0.478954 0.499309 0.503542
0.479096 0.499412 0.503597
0.479238 0.499514 0.503651
0.479380 0.499617 0.503706
0.479522 0.499719 0.503761
0.479664 0.499822 0.503816
0.479806 0.499924 0.503870
0.479948 0.500027 0.503925
0.480090 0.500129 0.503980
0.480232 0.500232 0.504034
0.480374 0.500334 0.504089
0.480516 0.500437 0.504144
0.480658 0.500539 0.504198
0.480800 0.500642 0.504253
0.480942 0.500745 0.504308
0.481084 0.500847 0.504363
0.481226 0.500950 0.504417
0.481368 0.501027 0.504472
0.481510 0.501093 0.504527
0.481652 0.501159 0.504581
0.481798 0.501225 0.504636
0.481945 0.501292 0.504691
0.482093 0.501358 0.504745
0.482240 0.501424 0.504799
0.482387 0.501490 0.504851
0.482535 0.501556 0.504903
0.482682 0.501623 0.504954
0.482829 0.501689 0.505006
0.482977 0.501755 0.505058
0.483124 0.501821 0.505109
0.483272 0.501888 0.505161
0.483419 0.501954 0.505213
0.483566 0.502020 0.505264
0.483714 0.502086 0.505316
0.483861 0.502152 0.505368
0.484008 0.502219 0.505419
0.484156 0.502285 0.505471
0.484303 0.502351 0.505523
0.484450 0.502417 0.505574
0.484598 0.502483 0.505626
0.484745 0.502550 0.505678
0.484892 0.502616 0.505729
0.485040 0.502682 0.505781
0.485187 0.502748 0.505833
0.485334 0.502815 0.505884
0.485482 0.502881 0.505936
0.485629 0.502947 0.505988
0.485776 0.503013 0.506039
0.485924 0.503079 0.506091
0.486071 0.503253 0.506142
0.486219 0.503450 0.506194
0.486372 0.503646 0.506246
0.486663 0.503843 0.506297
0.486955 0.504039 0.506349
0.487247 0.504236 0.506401
0.487538 0.504432 0.506502
0.487830 0.504629 0.506625
0.488122 0.504825 0.506747
0.488414 0.505021 0.506870
0.488705 0.505218 0.506993
0.488997 0.505414 0.507115
0.489289 0.505611 0.507238
0.489581 0.505807 0.507361
0.489872 0.506004 0.507483
0.490164 0.506200 0.507606
0.490456 0.506397 0.507728
0.490747 0.506593 0.507851
0.491039 0.506789 0.507974
0.491331 0.506986 0.508096
0.491623 0.507182 0.508219
0.491914 0.507379 0.508342
0.492206 0.507575 0.508464
0.492498 0.507772 0.508587
0.492790 0.507968 0.508709
0.493081 0.508165 0.508832
0.493373 0.508361 0.508955
0.493665 0.508557 0.509077
0.493957 0.508754 0.509200
0.494248 0.508950 0.509323
0.494540 0.509147 0.509445
0.494832 0.509343 0.509568
0.495123 0.509821 0.509691
0.495415 0.510312 0.509813
0.495803 0.510804 0.509936
0.496369 0.511295 0.510058
0.496934 0.511787 0.510181
0.497500 0.512278 0.510361
0.498065 0.512770 0.510840
0.498631 0.513261 0.511320
0.499196 0.513753 0.511799
0.499761 0.514244 0.512278
0.500327 0.514736 0.512758
0.500892 0.515227 0.513237
0.501458 0.515719 0.513716
0.502023 0.516210 0.514196
0.502589 0.516702 0.514675
0.503154 0.517193 0.515154
0.503720 0.517685 0.515634
0.504285 0.518176 0.516113
0.504851 0.518668 0.516592
0.505416 0.519159 0.517072
0.505982 0.519651 0.517551
0.506547 0.520142 0.518030
0.507113 0.520634 0.518510
0.507678 0.521125 0.518989
0.508244 0.521617 0.519468
0.508809 0.522108 0.519948
0.509375 0.522600 0.520427
0.509940 0.523091 0.520906
0.510506 0.523583 0.521386
0.511071 0.524074 0.521865
0.511636 0.524566 0.522344
0.512202 0.525145 0.522824
0.512767 0.526764 0.523303
0.513333 0.528383 0.523782
0.514621 0.530002 0.524262
0.516275 0.531621 0.524741
0.517929 0.533240 0.525220
0.519583 0.534859 0.526418
0.521236 0.536478 0.528053
0.522890 0.538097 0.529687
0.524544 0.539716 0.531322
0.526198 0.541335 0.532957
0.527852 0.542955 0.534591
0.529506 0.544574 0.536226
0.531160 0.546193 0.537861
0.532814 0.547812 0.539495
0.534468 0.549431 0.541130
0.536122 0.551050 0.542765
0.537776 0.552669 0.544399
0.539430 0.554288 0.546034
0.541084 0.555907 0.547669
0.542738 0.557526 0.549303
0.544391 0.559146 0.550938
0.546045 0.560765 0.552572
0.547699 0.562384 0.554207
0.549353 0.564003 0.555842
0.551007 0.565622 0.557476
0.552661 0.567241 0.559111
0.554315 0.568860 0.560746
0.555969 0.570479 0.562380
0.557623 0.572098 0.564015
0.559277 0.573717 0.565650
0.560931 0.575337 0.567284
0.562585 0.577263 0.568919
0.564239 0.580403 0.570553
0.565893 0.583542 0.572188
0.569043 0.586682 0.573823
0.572230 0.589821 0.575457
0.575418 0.592961 0.577240
0.578605 0.596100 0.580653
0.581792 0.599239 0.584066
0.584980 0.602379 0.587478
0.588167 0.605518 0.590891
0.591355 0.608658 0.594304
0.594542 0.611797 0.597716
0.597729 0.614937 0.601129
0.600917 0.618076 0.604542
0.604104 0.621215 0.607955
0.607292 0.624355 0.611367
0.610479 0.627494 0.614780
0.613666 0.630634 0.618193
0.616854 0.633773 0.621605
0.620041 0.636913 0.625018
0.623229 0.640052 0.628431
0.626416 0.643191 0.631843
0.629603 0.646331 0.635256
0.632791 0.649470 0.638669
0.635978 0.652610 0.642081
0.639166 0.655749 0.645494
0.642353 0.658889 0.648907
0.645540 0.662028 0.652320
0.648728 0.665167 0.655732
0.651915 0.668307 0.659145
0.655103 0.671446 0.662558
0.658290 0.674586 0.665970
0.661477 0.678072 0.669383
0.664665 0.682269 0.672796
0.668076 0.686467 0.676208
0.672039 0.690665 0.679621
0.676003 0.694862 0.683034
0.679966 0.699060 0.686951
0.683930 0.703258 0.691290
0.687893 0.707455 0.695629
0.691857 0.711653 0.699968
0.695820 0.715851 0.704307
0.699784 0.720048 0.708647
0.703747 0.724246 0.712986
0.707711 0.728444 0.717325
0.711674 0.732641 0.721664
0.715638 0.736839 0.726003
0.719601 0.741037 0.730342
0.723565 0.745234 0.734681
0.727528 0.749432 0.739020
0.731492 0.753630 0.743359
0.735456 0.757827 0.747698
0.739419 0.762025 0.752037
0.743383 0.766223 0.756377
0.747346 0.770420 0.760716
0.751310 0.774618 0.765055
0.755273 0.778816 0.769394
0.759237 0.783013 0.773733
0.763200 0.787211 0.778072
0.767164 0.791409 0.782411
0.771127 0.795606 0.786750
0.775091 0.799804 0.791089
0.779054 0.804002 0.795428
0.783018 0.808199 0.799768
0.786981 0.811907 0.804107
0.790945 0.815021 0.808446
0.794507 0.818136 0.812785
0.797803 0.821250 0.817124
0.801098 0.824364 0.821456
0.804394 0.827479 0.824554
0.807689 0.830593 0.827652
0.810985 0.833707 0.830750
0.814280 0.836822 0.833848
0.817576 0.839936 0.836946
0.820871 0.843050 0.840044
0.824167 0.846165 0.843142
0.827463 0.849279 0.846240
0.830758 0.852394 0.849338
0.834054 0.855508 0.852437
0.837349 0.858622 0.855535
0.840645 0.861737 0.858633
0.843940 0.864851 0.861731
0.847236 0.867965 0.864829
0.850531 0.871080 0.867927
0.853827 0.874194 0.871025
0.857122 0.877308 0.874123
0.860418 0.880423 0.877221
0.863713 0.883537 0.880319
0.867009 0.886651 0.883417
0.870304 0.889766 0.886515
0.873600 0.892880 0.889614
0.876895 0.895994 0.892712
0.880191 0.899109 0.895810
0.883486 0.902223 0.898908
0.886782 0.905338 0.902006
0.890078 0.908452 0.905104
0.893373 0.910729 0.908202
0.896669 0.912394 0.911300
0.898682 0.914059 0.914398
0.900573 0.915723 0.917496
0.902464 0.917388 0.919879
0.904355 0.919053 0.921447
0.906246 0.920718 0.923015
0.908136 0.922382 0.924582
0.910027 0.924047 0.926150
0.911918 0.925712 0.927718
0.913809 0.927376 0.929286
0.915700 0.929041 0.930853
0.917590 0.930706 0.932421
0.919481 0.932371 0.933989
0.921372 0.934035 0.935556
0.923263 0.935700 0.937124
0.925153 0.937365 0.938692
0.927044 0.939030 0.940259
0.928935 0.940694 0.941827
0.930826 0.942359 0.943395
0.932717 0.944024 0.944962
0.934607 0.945688 0.946530
0.936498 0.947353 0.948098
0.938389 0.949018 0.949665
0.940280 0.950683 0.951233
0.942171 0.952347 0.952801
0.944061 0.954012 0.954368
0.945952 0.955677 0.955936
0.947843 0.957342 0.957504
0.949734 0.959006 0.959071
0.951625 0.960671 0.960639
0.953515 0.962336 0.962207
0.955406 0.963387 0.963775
0.957070 0.964178 0.965342
0.957951 0.964969 0.966910
0.958833 0.965760 0.968478
0.959714 0.966551 0.969223
0.960595 0.967342 0.969904
0.961476 0.968133 0.970586
0.962357 0.968924 0.971267
0.963238 0.969715 0.971949
0.964119 0.970505 0.972630
0.965001 0.971296 0.973312
0.965882 0.972087 0.973993
0.966763 0.972878 0.974675
0.967644 0.973669 0.975356
0.968525 0.974460 0.976038
0.969406 0.975251 0.976719
0.970288 0.976042 0.977401
0.971169 0.976833 0.978082
0.972050 0.977624 0.978764
0.972931 0.978415 0.979446
0.973812 0.979206 0.980127
0.974693 0.979997 0.980809
0.975574 0.980788 0.981490
0.976456 0.981579 0.982172
0.977337 0.982370 0.982853
0.978218 0.983161 0.983535
0.979099 0.983952 0.984216
0.979980 0.984743 0.984898
0.980861 0.985534 0.985579
0.981742 0.986325 0.986261
0.982624 0.987116 0.986942
0.983505 0.987907 0.987624
0.984386 0.988271 0.988305
0.984977 0.988546 0.988987
0.985317 0.988821 0.989669
0.985658 0.989096 0.990170
0.985999 0.989370 0.990388
0.986339 0.989645 0.990607
0.986680 0.989920 0.990826
0.987020 0.990195 0.991044
0.987361 0.990470 0.991263
0.987702 0.990745 0.991482
0.988042 0.991020 0.991701
0.988383 0.991295 0.991919
0.988724 0.991570 0.992138
0.989064 0.991845 0.992357
0.989405 0.992120 0.992575
0.989745 0.992394 0.992794
0.990086 0.992669 0.993013
0.990426 0.992944 0.993231
0.990767 0.993219 0.993450
0.991108 0.993494 0.993669
0.991448 0.993769 0.993887
0.991789 0.994044 0.994106
0.992130 0.994319 0.994325
0.992470 0.994594 0.994543
0.992811 0.994869 0.994762
0.993151 0.995144 0.994981
0.993492 0.995418 0.995199
0.993833 0.995693 0.995418
0.994173 0.995968 0.995637
0.994514 0.996243 0.995855
0.994854 0.996518 0.996074
0.995195 0.996793 0.996293
0.995536 0.996885 0.996511
0.995682 0.996967 0.996730
0.995794 0.997049 0.996949
0.995906 0.997132 0.997047
0.996018 0.997214 0.997123
0.996130 0.997296 0.997200
0.996242 0.997379 0.997276
0.996354 0.997461 0.997353
0.996466 0.997543 0.997429
0.996578 0.997626 0.997506
0.996689 0.997708 0.997582
0.996801 0.997790 0.997659
0.996913 0.997873 0.997735
0.997025 0.997955 0.997812
0.997137 0.998038 0.997888
0.997249 0.998120 0.997965
0.997361 0.998202 0.998041
0.997473 0.998285 0.998118
0.997585 0.998367 0.998194
0.997697 0.998449 0.998271
0.997809 0.998532 0.998347
0.997921 0.998614 0.998424
0.998033 0.998696 0.998500
0.998145 0.998779 0.998577
0.998257 0.998861 0.998653
0.998369 0.998943 0.998730
0.998481 0.999026 0.998806
0.998593 0.999108 0.998883
0.998704 0.999191 0.998959
0.998816 0.999273 0.999036
0.998928 0.999355 0.999112
0.999040 0.999432 0.999189
0.999138 0.999440 0.999265
0.999164 0.999448 0.999342
0.999190 0.999457 0.999399
0.999216 0.999465 0.999415
0.999242 0.999473 0.999430
0.999268 0.999482 0.999446
0.999293 0.999490 0.999461
0.999319 0.999498 0.999477
0.999345 0.999506 0.999492
0.999371 0.999515 0.999508
0.999397 0.999523 0.999523
0.999423 0.999531 0.999539
0.999448 0.999539 0.999554
0.999474 0.999548 0.999570
0.999500 0.999556 0.999585
0.999526 0.999564 0.999601
0.999552 0.999573 0.999616
0.999578 0.999581 0.999632
0.999604 0.999589 0.999647
0.999629 0.999597 0.999663
0.999655 0.999606 0.999678
0.999681 0.999614 0.999694
0.999707 0.999622 0.999709
0.999733 0.999631 0.999725
0.999759 0.999639 0.999740
0.999784 0.999647 0.999756
0.999810 0.999655 0.999771
0.999836 0.999664 0.999786
0.999862 0.999672 0.999802
0.999888 0.999680 0.999817
0.999914 0.999689 0.999833
0.999940 0.999697 0.999848
0.999953 0.999707 0.999864
0.999953 0.999716 0.999879
0.999953 0.999726 0.999876
0.999953 0.999735 0.999867
0.999953 0.999745 0.999858
0.999953 0.999755 0.999850
0.999953 0.999764 0.999841
0.999953 0.999774 0.999832
0.999953 0.999783 0.999823
0.999953 0.999793 0.999814
0.999953 0.999802 0.999806
0.999953 0.999812 0.999797
0.999953 0.999821 0.999788
0.999953 0.999831 0.999779
0.999953 0.999841 0.999770
0.999953 0.999850 0.999762
0.999953 0.999860 0.999753
0.999953 0.999869 0.999744
0.999953 0.999879 0.999735
0.999953 0.999888 0.999726
0.999953 0.999898 0.999718
0.999953 0.999907 0.999709
0.999953 0.999917 0.999700
