assets/luts/Kodak 2393.cube
TITLE "DiVERE Kodak 2393"
LUT_1D_SIZE 1024
DOMAIN_MIN 0.0 0.0 0.0
DOMAIN_MAX 1.0 1.0 1.0

0.000000 0.000000 0.000000
0.000000 0.000000 0.000000
0.000000 0.000000 0.000000
0.000000 0.000000 0.000000
0.000000 0.000000 0.000000
0.000000 0.000000 0.000000
0.000000 0.000000 0.000000
0.000000 0.000000 0.000000
0.000000 0.000000 0.000000
0.000000 0.000000 0.000000
0.000000 0.000000 0.000000
0.000000 0.000000 0.000000
0.000000 0.000000 0.000000
0.000000 0.000000 0.000000
0.000000 0.000000 0.000000
0.000000 0.000000 0.000000
0.000000 0.000000 0.000000
0.000000 0.000000 0.000000
0.000000 0.000000 0.000000
0.000000 0.000000 0.000000
0.000000 0.000000 0.000000
0.000000 0.000000 0.000000
0.000000 0.000000 0.000000
0.000000 0.000000 0.000000
0.000000 0.000000 0.000000
0.000000 0.000000 0.000000
0.000000 0.000000 0.000000
0.000000 0.000000 0.000000
0.000000 0.000000 0.000000
0.000000 0.000000 0.000000
0.000000 0.000000 0.000000
0.000000 0.000000 0.000000
0.000000 0.000000 0.000000
0.000000 0.000000 0.000000
0.000000 0.000000 0.000000
0.000000 0.000000 0.000000
0.000000 0.000000 0.000000
0.000000 0.000000 0.000000
0.000000 0.000000 0.000000
0.000000 0.000000 0.000000
0.000000 0.000000 0.000000
0.000000 0.000000 0.000000
0.000000 0.000000 0.000000
0.000000 0.000000 0.000000
0.000000 0.000000 0.000000
0.000000 0.000000 0.000000
0.000000 0.000000 0.000000
0.000000 0.000000 0.000000
0.000000 0.000000 0.000000
0.000000 0.000000 0.000000
0.000000 0.000000 0.000000
0.000000 0.000000 0.000000
0.000000 0.000000 0.000000
0.000000 0.000000 0.000000
0.000000 0.000000 0.000000
0.000000 0.000000 0.000000
0.000000 0.000000 0.000000
0.000000 0.000000 0.000000
0.000000 0.000000 0.000000
0.000000 0.000000 0.000000
0.000000 0.000000 0.000000
0.000000 0.000000 0.000000
0.000000 0.000000 0.000000
0.000000 0.000000 0.000000
0.000000 0.000000 0.000000
0.000000 0.000000 0.000000
0.000000 0.000000 0.000000
0.000000 0.000000 0.000000
0.000000 0.000000 0.000000
0.000000 0.000000 0.000000
0.000000 0.000000 0.000000
0.000000 0.000000 0.000000
0.000000 0.000000 0.000000
0.000000 0.000000 0.000000
0.000000 0.000000 0.000000
0.000000 0.000000 0.000000
0.000000 0.000000 0.000000
0.000000 0.000000 0.000000
0.000000 0.000000 0.000000
0.000000 0.000000 0.000000
0.000000 0.000000 0.000000
0.000000 0.000000 0.000000
0.000000 0.000000 0.000000
0.000000 0.000000 0.000000
0.000000 0.000000 0.000000
0.000000 0.000000 0.000000
0.000000 0.000000 0.000000
0.000000 0.000000 0.000000
0.000000 0.000000 0.000000
0.000000 0.000000 0.000000
0.000000 0.000000 0.000000
0.000000 0.000000 0.000000
0.000000 0.000000 0.000000
0.000000 0.000000 0.000000
0.000000 0.000000 0.000000
0.000000 0.000000 0.000000
0.000000 0.000000 0.000000
0.000000 0.000000 0.000000
0.000000 0.000000 0.000000
0.000000 0.000000 0.000000
0.000000 0.000000 0.000000
0.000000 0.000000 0.000000
0.000000 0.000000 0.000000
0.000000 0.000000 0.000000
0.000000 0.000000 0.000000
0.000000 0.000000 0.000000
0.000000 0.000000 0.000000
0.000000 0.000000 0.000000
0.000000 0.000000 0.000000
0.000000 0.000000 0.000000
0.000000 0.000000 0.000000
0.000000 0.000000 0.000000
0.000000 0.000000 0.000000
0.000000 0.000000 0.000000
0.000000 0.000000 0.000000
0.000000 0.000000 0.000000
0.000000 0.000000 0.000000
0.000000 0.000000 0.000000
0.000000 0.000000 0.000000
0.000000 0.000000 0.000000
0.000000 0.000000 0.000000
0.000000 0.000000 0.000000
0.000000 0.000000 0.000000
0.000000 0.000000 0.000000
0.000000 0.000000 0.000000
0.000000 0.000000 0.000000
0.000000 0.000000 0.000000
0.000000 0.000000 0.000000
0.000000 0.000000 0.000000
0.000000 0.000000 0.000000
0.000000 0.000000 0.000000
0.000000 0.000000 0.000000
0.000000 0.000000 0.000000
0.000000 0.000000 0.000000
0.000000 0.000000 0.000000
0.000000 0.000000 0.000000
0.000000 0.000000 0.000000
0.000000 0.000000 0.000000
0.000000 0.000000 0.000000
0.000000 0.000000 0.000000
0.000000 0.000000 0.000000
0.000000 0.000000 0.000000
0.000000 0.000000 0.000000
0.000000 0.000000 0.000000
0.000000 0.000000 0.000000
0.000000 0.000000 0.000000
0.000000 0.000000 0.000000
0.000000 0.000000 0.000000
0.000000 0.000000 0.000000
0.000000 0.000000 0.000000
0.000000 0.000000 0.000000
0.000000 0.000000 0.000000
0.000000 0.000000 0.000000
0.000000 0.000000 0.000000
0.000000 0.000000 0.000000
0.000000 0.000000 0.000000
0.000000 0.000000 0.000000
0.000000 0.000000 0.000000
0.000000 0.000000 0.000000
0.000000 0.000000 0.000000
0.000000 0.000000 0.000000
0.000000 0.000000 0.000000
0.000000 0.000000 0.000000
0.000000 0.000000 0.000000
0.000000 0.000000 0.000000
0.000000 0.000000 0.000000
0.000000 0.000000 0.000000
0.000000 0.000000 0.000000
0.000000 0.000000 0.000000
0.000000 0.000000 0.000000
0.000000 0.000000 0.000000
0.000000 0.000000 0.000000
0.000000 0.000000 0.000000
0.000000 0.000000 0.000000
0.000000 0.000000 0.000000
0.000000 0.000000 0.000000
0.000000 0.000000 0.000000
0.000000 0.000000 0.000000
0.000000 0.000000 0.000000
0.000000 0.000000 0.000000
0.000000 0.000000 0.000000
0.000000 0.000000 0.000000
0.000000 0.000000 0.000000
0.000000 0.000000 0.000000
0.000000 0.000000 0.000000
0.000000 0.000000 0.000000
0.000000 0.000000 0.000000
0.000000 0.000000 0.000000
0.000000 0.000000 0.000000
0.000000 0.000000 0.000000
0.000000 0.000000 0.000000
0.000000 0.000000 0.000000
0.000000 0.000000 0.000000
0.000000 0.000000 0.000000
0.000000 0.000000 0.000000
0.000000 0.000000 0.000000
0.000000 0.000000 0.000000
0.000000 0.000000 0.000000
0.000000 0.000000 0.000000
0.000000 0.000000 0.000000
0.000000 0.000000 0.000000
0.000000 0.000000 0.000000
0.000000 0.000000 0.000000
0.000000 0.000000 0.000000
0.000000 0.000000 0.000000
0.000000 0.000000 0.000000
0.000000 0.000000 0.000000
0.000000 0.000000 0.000000
0.000000 0.000000 0.000000
0.000000 0.000000 0.000000
0.000000 0.000000 0.000000
0.000000 0.000000 0.000000
0.000000 0.000000 0.000000
0.000000 0.000000 0.000000
0.000000 0.000000 0.000000
0.000000 0.000000 0.000000
0.000000 0.000000 0.000000
0.000000 0.000000 0.000000
0.000000 0.000000 0.000000
0.000000 0.000000 0.000000
0.000000 0.000000 0.000000
0.000000 0.000000 0.000000
0.000000 0.000000 0.000000
0.000000 0.000000 0.000000
0.000000 0.000000 0.000000
0.000000 0.000000 0.000000
0.000000 0.000000 0.000000
0.000000 0.000000 0.000000
0.000000 0.000000 0.000000
0.000000 0.000000 0.000000
0.000000 0.000000 0.000000
0.000000 0.000000 0.000000
0.000000 0.000000 0.000000
0.000000 0.000000 0.000000
0.000000 0.000000 0.000000
0.000000 0.000000 0.000000
0.000000 0.000000 0.000000
0.000000 0.000000 0.000000
0.000000 0.000000 0.000000
0.000000 0.000000 0.000000
0.000000 0.000000 0.000000
0.000000 0.000000 0.000000
0.000000 0.000000 0.000000
0.000000 0.000000 0.000000
0.000000 0.000000 0.000000
0.000000 0.000000 0.000000
0.000000 0.000000 0.000000
0.000000 0.000000 0.000000
0.000000 0.000000 0.000000
0.000000 0.000000 0.000000
0.000000 0.000000 0.000000
0.000000 0.000000 0.000000
0.000000 0.000000 0.000000
0.000000 0.000000 0.000000
0.000000 0.000000 0.000000
0.000000 0.000000 0.000000
0.000000 0.000000 0.000000
0.000000 0.000000 0.000000
0.000000 0.000000 0.000000
0.000000 0.000000 0.000000
0.000000 0.000000 0.000000
0.000000 0.000000 0.000000
0.000000 0.000000 0.000000
0.000000 0.000000 0.000000
0.000000 0.000000 0.000000
0.000000 0.000000 0.000000
0.000000 0.000000 0.000000
0.000000 0.000000 0.000000
0.000000 0.000000 0.000000
0.000000 0.000000 0.000000
0.000000 0.000000 0.000000
0.000000 0.000000 0.000000
0.000000 0.000000 0.000000
0.000000 0.000000 0.000000
0.000000 0.000000 0.000000
0.000000 0.000000 0.000000
0.000000 0.000000 0.000000
0.000000 0.000000 0.000000
0.000000 0.000000 0.000000
0.000000 0.000000 0.000000
0.000000 0.000000 0.000000
0.000000 0.000000 0.000000
0.000000 0.000000 0.000000
0.000000 0.000000 0.000000
0.000000 0.000000 0.000000
0.000000 0.000000 0.000000
0.000000 0.000000 0.000000
0.000000 0.000000 0.000000
0.000000 0.000000 0.000000
0.000000 0.000000 0.000000
0.000000 0.000000 0.000000
0.000000 0.000000 0.000000
0.000000 0.000000 0.000000
0.000000 0.000000 0.000000
0.000000 0.000000 0.000000
0.000000 0.000000 0.000000
0.000000 0.000000 0.000000
0.000000 0.000000 0.000000
0.000000 0.000000 0.000000
0.000000 0.000000 0.000000
0.000000 0.000000 0.000000
0.000000 0.000000 0.000000
0.000000 0.000000 0.000000
0.000000 0.000000 0.000000
0.000000 0.000000 0.000000
0.000000 0.000000 0.000000
0.000000 0.000000 0.000000
0.000000 0.000000 0.000000
0.000000 0.000000 0.000000
0.000000 0.000000 0.000000
0.000000 0.000000 0.000000
0.000000 0.000000 0.000000
0.000000 0.000000 0.000000
0.000000 0.000000 0.000000
0.000000 0.000000 0.000000
0.000000 0.000000 0.000000
0.000000 0.000000 0.000000
0.000000 0.000000 0.000000
0.000000 0.000000 0.000000
0.000000 0.000000 0.000000
0.000000 0.000000 0.000000
0.000000 0.000000 0.000000
0.000000 0.000000 0.000000
0.000000 0.000000 0.000000
0.000000 0.000000 0.000000
0.000000 0.000000 0.000000
0.000000 0.000000 0.000000
0.000000 0.000000 0.000000
0.000000 0.000000 0.000000
0.000000 0.000000 0.000000
0.000000 0.000000 0.000000
0.000000 0.000000 0.000000
0.000000 0.000000 0.000000
0.000000 0.000000 0.000000
0.000000 0.000000 0.000000
0.000000 0.000000 0.000000
0.000000 0.000000 0.000000
0.000000 0.000000 0.000000
0.000000 0.000000 0.000000
0.000000 0.000000 0.000000
0.000000 0.000000 0.000000
0.000000 0.000000 0.000000
0.000000 0.000000 0.000000
0.000000 0.000000 0.000000
0.000000 0.000000 0.000000
0.000000 0.000000 0.000000
0.000000 0.000000 0.000000
0.000000 0.000000 0.000000
0.000000 0.000000 0.000000
0.000000 0.000000 0.000000
0.000000 0.000000 0.000000
0.000000 0.000000 0.000000
0.000000 0.000000 0.000000
0.000000 0.000000 0.000000
0.000000 0.000000 0.000000
0.000000 0.000000 0.000000
0.000000 0.000000 0.000000
0.000000 0.000000 0.000000
0.000000 0.000000 0.000000
0.000000 0.000000 0.000000
0.000000 0.000000 0.000000
0.000000 0.000000 0.000000
0.000000 0.000000 0.000000
0.000000 0.000000 0.000000
0.000000 0.000000 0.000000
0.000000 0.000000 0.000000
0.000000 0.000000 0.000000
0.000000 0.000000 0.000000
0.000000 0.000000 0.000000
0.000000 0.000000 0.000000
0.000000 0.000000 0.000000
0.000000 0.000000 0.000000
0.000000 0.000000 0.000000
0.000000 0.000000 0.000000
0.000000 0.000000 0.000000
0.000000 0.000000 0.000000
0.000000 0.000000 0.000000
0.000000 0.000000 0.000000
0.000000 0.000000 0.000000
0.000000 0.000000 0.000000
0.000000 0.000000 0.000000
0.000000 0.000000 0.000000
0.000000 0.000000 0.000000
0.000000 0.000000 0.000000
0.000000 0.000000 0.000000
0.000000 0.000000 0.000000
0.000000 0.000000 0.000000
0.000000 0.000000 0.000000
0.000000 0.000000 0.000000
0.000000 0.000000 0.000000
0.000000 0.000000 0.000000
0.000000 0.000000 0.000000
0.000000 0.000000 0.000000
0.000000 0.000000 0.000000
0.000000 0.000000 0.000000
0.000000 0.000000 0.000000
0.000000 0.000000 0.000000
0.000000 0.000000 0.000000
0.000000 0.000000 0.000000
0.000000 0.000000 0.000000
0.000000 0.000000 0.000000
0.000000 0.000000 0.000000
0.000000 0.000000 0.000000
0.000000 0.000000 0.000000
0.000000 0.000000 0.000000
0.000000 0.000000 0.000000
0.000000 0.000000 0.000000
0.000000 0.000000 0.000000
0.000000 0.000000 0.000000
0.000000 0.000000 0.000000
0.000000 0.000000 0.000000
0.000000 0.000000 0.000000
0.000000 0.000000 0.000000
0.000000 0.000000 0.000000
0.000000 0.000000 0.000000
0.000000 0.000000 0.000000
0.000000 0.000000 0.000000
0.000000 0.000000 0.000000
0.000000 0.000000 0.000000
0.000000 0.000000 0.000000
0.000000 0.000000 0.000000
0.000000 0.000000 0.000000
0.000000 0.000000 0.000000
0.000000 0.000000 0.000000
0.000057 0.000000 0.000000
0.000274 0.000000 0.000000
0.000491 0.000000 0.000000
0.000708 0.000000 0.000000
0.000925 0.000000 0.000000
0.001142 0.000000 0.000000
0.001359 0.000000 0.000000
0.001576 0.000000 0.000000
0.001793 0.000000 0.000000
0.002010 0.000000 0.000000
0.002227 0.000000 0.000000
0.002444 0.000000 0.000000
0.002661 0.000000 0.000000
0.002878 0.000000 0.000000
0.003095 0.000000 0.000000
0.003312 0.000000 0.000000
0.003529 0.000000 0.000000
0.003746 0.000000 0.000000
0.003963 0.000000 0.000000
0.004180 0.000000 0.000000
0.004397 0.000000 0.000000
0.004614 0.000000 0.000000
0.004831 0.000000 0.000000
0.005048 0.000000 0.000000
0.005265 0.000000 0.000000
0.005482 0.000000 0.000000
0.005699 0.000000 0.000000
0.005916 0.000000 0.000000
0.006133 0.000000 0.000000
0.006350 0.000000 0.000000
0.006567 0.000000 0.000000
0.006784 0.000000 0.000000
0.007001 0.000000 0.000000
0.007218 0.000000 0.000000
0.009589 0.001632 0.000000
0.012096 0.004093 0.000582
0.014603 0.006553 0.001586
0.017111 0.009014 0.002591
0.019618 0.011475 0.003595
0.022125 0.013935 0.004600
0.024632 0.016396 0.005604
0.027139 0.018856 0.006609
0.029646 0.021317 0.007613
0.032154 0.023777 0.008617
0.034661 0.026238 0.009622
0.037168 0.028699 0.010626
0.039675 0.031159 0.011631
0.042182 0.033620 0.012635
0.044689 0.036080 0.013640
0.047197 0.038541 0.014644
0.049704 0.041001 0.015649
0.052211 0.043462 0.016653
0.054718 0.045923 0.017658
0.057225 0.048383 0.018662
0.059732 0.050844 0.019667
0.062240 0.053304 0.020671
0.064747 0.055765 0.021676
0.067254 0.058225 0.022680
0.069761 0.060686 0.023684
0.072268 0.063146 0.024689
0.074775 0.065607 0.025693
0.077283 0.068068 0.026698
0.079790 0.070528 0.027702
0.082297 0.072989 0.028707
0.084804 0.075449 0.029711
0.087311 0.077910 0.030716
0.089818 0.080370 0.031720
0.093151 0.083384 0.032725
0.096991 0.087574 0.034717
0.100831 0.091764 0.038689
0.104671 0.095954 0.042661
0.108511 0.100144 0.046632
0.112351 0.104334 0.050604
0.116191 0.108524 0.054576
0.120030 0.112714 0.058548
0.123870 0.116904 0.062520
0.127710 0.121094 0.066492
0.131550 0.125284 0.070464
0.135390 0.129474 0.074435
0.139230 0.133664 0.078407
0.143070 0.137853 0.082379
0.146910 0.142043 0.086351
0.150750 0.146233 0.090323
0.154590 0.150423 0.094295
0.158430 0.154613 0.098266
0.162270 0.158803 0.102238
0.166110 0.162993 0.106210
0.169950 0.167183 0.110182
0.173790 0.171373 0.114154
0.177629 0.175563 0.118126
0.181469 0.179753 0.122097
0.185309 0.183943 0.126069
0.189149 0.188133 0.130041
0.192989 0.192323 0.134013
0.196829 0.196513 0.137985
0.200669 0.200703 0.141957
0.204509 0.204892 0.145928
0.208349 0.209082 0.149900
0.212189 0.213272 0.153872
0.216029 0.217462 0.157844
0.220185 0.221652 0.161816
0.225088 0.226396 0.165875
0.229990 0.231153 0.170852
0.234893 0.235910 0.175829
0.239796 0.240667 0.180806
0.244698 0.245424 0.185783
0.249601 0.250181 0.190760
0.254504 0.254938 0.195737
0.259406 0.259694 0.200714
0.264309 0.264451 0.205691
0.269212 0.269208 0.210668
0.274114 0.273965 0.215645
0.279017 0.278722 0.220622
0.283920 0.283479 0.225599
0.288822 0.288236 0.230577
0.293725 0.292993 0.235554
0.298628 0.297750 0.240531
0.303530 0.302507 0.245508
0.308433 0.307264 0.250485
0.313336 0.312021 0.255462
0.318238 0.316778 0.260439
0.323141 0.321535 0.265416
0.328044 0.326292 0.270393
0.332946 0.331049 0.275370
0.337849 0.335806 0.280347
0.342752 0.340563 0.285324
0.347654 0.345320 0.290301
0.352557 0.350077 0.295278
0.357460 0.354834 0.300255
0.362362 0.359591 0.305232
0.367265 0.364347 0.310210
0.372167 0.369104 0.315187
0.377070 0.373861 0.320164
0.381973 0.378618 0.325141
0.387129 0.383364 0.330118
0.392291 0.388102 0.335411
0.397454 0.392841 0.340763
0.402616 0.397579 0.346116
0.407778 0.402318 0.351469
0.412941 0.407057 0.356822
0.418103 0.411795 0.362175
0.423265 0.416534 0.367528
0.428428 0.421272 0.372880
0.433590 0.426011 0.378233
0.438752 0.430750 0.383586
0.443915 0.435488 0.388939
0.449077 0.440227 0.394292
0.454240 0.444965 0.399645
0.459402 0.449704 0.404997
0.464564 0.454443 0.410350
0.469727 0.459181 0.415703
0.474889 0.463920 0.421056
0.480051 0.468658 0.426409
0.485214 0.473397 0.431762
0.490376 0.478135 0.437114
0.495538 0.482874 0.442467
0.500701 0.487613 0.447820
0.505863 0.492351 0.453173
0.511025 0.497090 0.458526
0.516188 0.501828 0.463879
0.521350 0.506567 0.469231
0.526512 0.511306 0.474584
0.531675 0.516044 0.479937
0.536837 0.520783 0.485290
0.542000 0.525521 0.490643
0.547162 0.530260 0.495996
0.552324 0.534999 0.501348
0.557173 0.539575 0.506701
0.561856 0.543753 0.511756
0.566539 0.547932 0.516606
0.571222 0.552110 0.521456
0.575905 0.556288 0.526307
0.580588 0.560467 0.531157
0.585271 0.564645 0.536008
0.589954 0.568824 0.540858
0.594637 0.573002 0.545709
0.599320 0.577180 0.550559
0.604003 0.581359 0.555410
0.608686 0.585537 0.560260
0.613369 0.589716 0.565111
0.618052 0.593894 0.569961
0.622735 0.598072 0.574812
0.627418 0.602251 0.579662
0.632101 0.606429 0.584513
0.636784 0.610607 0.589363
0.641467 0.614786 0.594213
0.646150 0.618964 0.599064
0.650833 0.623143 0.603914
0.655516 0.627321 0.608765
0.660199 0.631499 0.613615
0.664882 0.635678 0.618466
0.669565 0.639856 0.623316
0.674248 0.644034 0.628167
0.678931 0.648213 0.633017
0.683614 0.652391 0.637868
0.688297 0.656570 0.642718
0.692980 0.660748 0.647569
0.697663 0.664926 0.652419
0.702346 0.669105 0.657269
0.707029 0.673283 0.662120
0.711338 0.677461 0.666970
0.714898 0.680893 0.671430
0.718457 0.684282 0.675155
0.722017 0.687671 0.678880
0.725576 0.691061 0.682605
0.729135 0.694450 0.686330
0.732695 0.697839 0.690055
0.736254 0.701228 0.693781
0.739814 0.704617 0.697506
0.743373 0.708006 0.701231
0.746933 0.711395 0.704956
0.750492 0.714784 0.708681
0.754052 0.718174 0.712407
0.757611 0.721563 0.716132
0.761171 0.724952 0.719857
0.764730 0.728341 0.723582
0.768290 0.731730 0.727307
0.771849 0.735119 0.731033
0.775409 0.738508 0.734758
0.778968 0.741897 0.738483
0.782528 0.745287 0.742208
0.786087 0.748676 0.745933
0.789647 0.752065 0.749659
0.793206 0.755454 0.753384
0.796766 0.758843 0.757109
0.800325 0.762232 0.760834
0.803885 0.765621 0.764559
0.807444 0.769010 0.768285
0.811003 0.772400 0.772010
0.814563 0.775789 0.775735
0.818122 0.779178 0.779460
0.821682 0.782567 0.783185
0.825241 0.785956 0.786911
0.828786 0.789345 0.790636
0.831042 0.792167 0.794230
0.833298 0.794615 0.796666
0.835554 0.797062 0.799103
0.837810 0.799510 0.801539
0.840066 0.801958 0.803976
0.842322 0.804405 0.806412
0.844579 0.806853 0.808849
0.846835 0.809300 0.811285
0.849091 0.811748 0.813721
0.851347 0.814196 0.816158
0.853603 0.816643 0.818594
0.855859 0.819091 0.821031
0.858115 0.821539 0.823467
0.860371 0.823986 0.825903
0.862627 0.826434 0.828340
0.864883 0.828882 0.830776
0.867139 0.831329 0.833213
0.869395 0.833777 0.835649
0.871652 0.836225 0.838086
0.873908 0.838672 0.840522
0.876164 0.841120 0.842958
0.878420 0.843567 0.845395
0.880676 0.846015 0.847831
0.882932 0.848463 0.850268
0.885188 0.850910 0.852704
0.887444 0.853358 0.855141
0.889700 0.855806 0.857577
0.891956 0.858253 0.860013
0.894212 0.860701 0.862450
0.896469 0.863149 0.864886
0.898725 0.865596 0.867323
0.900981 0.868044 0.869759
0.903237 0.870492 0.872195
0.904872 0.872755 0.874632
0.906229 0.874491 0.876332
0.907585 0.876228 0.877907
0.908942 0.877964 0.879482
0.910298 0.879701 0.881057
0.911654 0.881437 0.882633
0.913011 0.883173 0.884208
0.914367 0.884910 0.885783
0.915724 0.886646 0.887358
0.917080 0.888383 0.888933
0.918437 0.890119 0.890509
0.919793 0.891856 0.892084
0.921150 0.893592 0.893659
0.922506 0.895328 0.895234
0.923863 0.897065 0.896809
0.925219 0.898801 0.898385
0.926575 0.900538 0.899960
0.927932 0.902274 0.901535
0.929288 0.904011 0.903110
0.930645 0.905747 0.904685
0.932001 0.907483 0.906261
0.933358 0.909220 0.907836
0.934714 0.910956 0.909411
0.936071 0.912693 0.910986
0.937427 0.914429 0.912562
0.938784 0.916166 0.914137
0.940140 0.917902 0.915712
0.941496 0.919638 0.917287
0.942853 0.921375 0.918862
0.944209 0.923111 0.920438
0.945566 0.924848 0.922013
0.946922 0.926584 0.923588
0.948279 0.928321 0.925163
0.949413 0.930057 0.926738
0.950166 0.931175 0.927940
0.950918 0.932236 0.928901
0.951671 0.933296 0.929862
0.952424 0.934357 0.930823
0.953177 0.935418 0.931784
0.953930 0.936479 0.932745
0.954683 0.937539 0.933706
0.955435 0.938600 0.934667
0.956188 0.939661 0.935628
0.956941 0.940722 0.936589
0.957694 0.941783 0.937550
0.958447 0.942843 0.938511
0.959199 0.943904 0.939472
0.959952 0.944965 0.940433
0.960705 0.946026 0.941394
0.961458 0.947087 0.942355
0.962211 0.948147 0.943316
0.962964 0.949208 0.944277
0.963716 0.950269 0.945238
0.964469 0.951330 0.946199
0.965222 0.952390 0.947160
0.965975 0.953451 0.948121
0.966728 0.954512 0.949082
0.967480 0.955573 0.950043
0.968233 0.956634 0.951004
0.968986 0.957694 0.951965
0.969739 0.958755 0.952926
0.970492 0.959816 0.953887
0.971245 0.960877 0.954848
0.971997 0.961937 0.955809
0.972750 0.962998 0.956770
0.973503 0.964059 0.957731
0.974238 0.965120 0.958692
0.974619 0.965890 0.959521
0.975000 0.966444 0.960117
0.975381 0.966997 0.960713
0.975762 0.967551 0.961309
0.976143 0.968104 0.961905
0.976524 0.968658 0.962501
0.976905 0.969211 0.963097
0.977286 0.969764 0.963693
0.977667 0.970318 0.964289
0.978048 0.970871 0.964885
0.978429 0.971425 0.965481
0.978810 0.971978 0.966077
0.979191 0.972532 0.966673
0.979572 0.973085 0.967269
0.979953 0.973639 0.967865
0.980334 0.974192 0.968461
0.980715 0.974746 0.969057
0.981096 0.975299 0.969653
0.981477 0.975852 0.970249
0.981858 0.976406 0.970845
0.982239 0.976959 0.971441
0.982620 0.977513 0.972037
0.983000 0.978066 0.972633
0.983381 0.978620 0.973229
0.983762 0.979173 0.973825
0.984143 0.979727 0.974421
0.984524 0.980280 0.975017
0.984905 0.980834 0.975613
0.985286 0.981387 0.976209
0.985667 0.981940 0.976805
0.986048 0.982494 0.977401
0.986429 0.983047 0.977997
0.986810 0.983601 0.978593
0.987060 0.984084 0.979161
0.987261 0.984329 0.979515
0.987462 0.984574 0.979869
0.987663 0.984819 0.980222
0.987863 0.985064 0.980576
0.988064 0.985309 0.980930
0.988265 0.985555 0.981284
0.988465 0.985800 0.981638
0.988666 0.986045 0.981992
0.988867 0.986290 0.982345
0.989068 0.986535 0.982699
0.989268 0.986780 0.983053
0.989469 0.987025 0.983407
0.989670 0.987271 0.983761
0.989871 0.987516 0.984114
0.990071 0.987761 0.984468
0.990272 0.988006 0.984822
0.990473 0.988251 0.985176
0.990674 0.988496 0.985530
0.990874 0.988741 0.985884
0.991075 0.988986 0.986237
0.991276 0.989232 0.986591
0.991477 0.989477 0.986945
0.991677 0.989722 0.987299
0.991878 0.989967 0.987653
0.992079 0.990212 0.988006
0.992280 0.990457 0.988360
0.992480 0.990702 0.988714
0.992681 0.990948 0.989068
0.992882 0.991193 0.989422
0.993083 0.991438 0.989776
0.993283 0.991683 0.990129
0.993484 0.991928 0.990483
0.993643 0.992173 0.990837
0.993740 0.992295 0.991029
0.993837 0.992401 0.991197
0.993934 0.992506 0.991364
0.994031 0.992612 0.991532
0.994128 0.992717 0.991699
0.994225 0.992823 0.991867
0.994322 0.992928 0.992035
0.994419 0.993034 0.992202
0.994516 0.993140 0.992370
0.994613 0.993245 0.992538
0.994710 0.993351 0.992705
0.994807 0.993456 0.992873
0.994904 0.993562 0.993041
0.995001 0.993668 0.993208
0.995098 0.993773 0.993376
0.995196 0.993879 0.993543
0.995293 0.993984 0.993711
0.995390 0.994090 0.993879
0.995487 0.994196 0.994046
0.995584 0.994301 0.994214
0.995681 0.994407 0.994382
0.995778 0.994512 0.994549
0.995875 0.994618 0.994717
0.995972 0.994723 0.994885
0.996069 0.994829 0.995052
0.996166 0.994935 0.995220
0.996263 0.995040 0.995387
0.996360 0.995146 0.995555
0.996457 0.995251 0.995723
0.996554 0.995357 0.995890
0.996651 0.995463 0.996058
0.996748 0.995568 0.996226
0.996842 0.995674 0.996393
0.996900 0.995759 0.996493
0.996959 0.995827 0.996551
0.997017 0.995895 0.996610
0.997075 0.995963 0.996668
0.997133 0.996031 0.996727
0.997192 0.996099 0.996785
0.997250 0.996168 0.996844
0.997308 0.996236 0.996902
0.997367 0.996304 0.996960
0.997425 0.996372 0.997019
0.997483 0.996440 0.997077
0.997542 0.996508 0.997136
0.997600 0.996576 0.997194
0.997658 0.996644 0.997253
0.997717 0.996712 0.997311
0.997775 0.996780 0.997370
0.997833 0.996849 0.997428
0.997892 0.996917 0.997486
0.997950 0.996985 0.997545
0.998008 0.997053 0.997603
0.998067 0.997121 0.997662
0.998125 0.997189 0.997720
0.998183 0.997257 0.997779
0.998241 0.997325 0.997837
0.998300 0.997393 0.997896
0.998358 0.997461 0.997954
0.998416 0.997530 0.998013
