assets/luts/Kodak 2383.cube
TITLE "DiVERE Kodak 2383"
LUT_1D_SIZE 1024
DOMAIN_MIN 0.0 0.0 0.0
DOMAIN_MAX 1.0 1.0 1.0

0.152186 0.155979 0.165866
0.152186 0.155979 0.165866
0.152186 0.155979 0.165866
0.152186 0.155979 0.165866
0.152186 0.155979 0.165866
0.152186 0.155979 0.165866
0.152186 0.155979 0.165866
0.152186 0.155979 0.165866
0.152186 0.155979 0.165866
0.152186 0.155979 0.165866
0.152186 0.155979 0.165866
0.152186 0.155979 0.165866
0.152186 0.155979 0.165866
0.152186 0.155979 0.165866
0.152186 0.155979 0.165866
0.152186 0.155979 0.165866
0.152186 0.155979 0.165866
0.152186 0.155979 0.165866
0.152186 0.155979 0.165866
0.152186 0.155979 0.165866
0.152186 0.155979 0.165866
0.152186 0.155979 0.165866
0.152186 0.155979 0.165866
0.152186 0.155979 0.165866
0.152186 0.155979 0.165866
0.152186 0.155979 0.165866
0.152186 0.155979 0.165866
0.152186 0.155979 0.165866
0.152186 0.155979 0.165866
0.152186 0.155979 0.165866
0.152186 0.155979 0.165866
0.152186 0.155979 0.165866
0.152186 0.155979 0.165866
0.152186 0.155979 0.165866
0.152186 0.155979 0.165866
0.152186 0.155979 0.165866
0.152186 0.155979 0.165866
0.152186 0.155979 0.165866
0.152186 0.155979 0.165866
0.152186 0.155979 0.165866
0.152186 0.155979 0.165866
0.152186 0.155979 0.165866
0.152186 0.155979 0.165866
0.152186 0.155979 0.165866
0.152186 0.155979 0.165866
0.152186 0.155979 0.165866
0.152186 0.155979 0.165866
0.152186 0.155979 0.165866
0.152186 0.155979 0.165866
0.152186 0.155979 0.165866
0.152186 0.155979 0.165866
0.152186 0.155979 0.165866
0.152186 0.155979 0.165866
0.152186 0.155979 0.165866
0.152186 0.155979 0.165866
0.152186 0.155979 0.165866
0.152186 0.155979 0.165866
0.152186 0.155979 0.165866
0.152186 0.155979 0.165866
0.152186 0.155979 0.165866
0.152186 0.155979 0.165866
0.152186 0.155979 0.165866
0.152186 0.155979 0.165866
0.152186 0.155979 0.165866
0.152186 0.155979 0.165866
0.152186 0.155979 0.165866
0.152186 0.155979 0.165866
0.152186 0.155979 0.165866
0.152186 0.155979 0.165866
0.152186 0.155979 0.165866
0.152186 0.155979 0.165866
0.152186 0.155979 0.165866
0.152186 0.155979 0.165866
0.152186 0.155979 0.165866
0.152186 0.155979 0.165866
0.152186 0.155979 0.165866
0.152186 0.155979 0.165866
0.152186 0.155979 0.165866
0.152186 0.155979 0.165866
0.152186 0.155979 0.165866
0.152186 0.155979 0.165866
0.152186 0.155979 0.165866
0.152186 0.155979 0.165866
0.152186 0.155979 0.165866
0.152186 0.155979 0.165866
0.152186 0.155979 0.165866
0.152186 0.155979 0.165866
0.152186 0.155979 0.165866
0.152186 0.155979 0.165866
0.152186 0.155979 0.165866
0.152186 0.155979 0.165866
0.152186 0.155979 0.165866
0.152186 0.155979 0.165866
0.152186 0.155979 0.165866
0.152186 0.155979 0.165866
0.152186 0.155979 0.165866
0.152186 0.155979 0.165866
0.152186 0.155979 0.165866
0.152186 0.155979 0.165866
0.152186 0.155979 0.165866
0.152186 0.155979 0.165866
0.152186 0.155979 0.165866
0.152186 0.155979 0.165866
0.152186 0.155979 0.165866
0.152186 0.155979 0.165866
0.152186 0.155979 0.165866
0.152186 0.155979 0.165866
0.152186 0.155979 0.165866
0.152186 0.155979 0.165866
0.152186 0.155979 0.165866
0.152186 0.155979 0.165866
0.152186 0.155979 0.165866
0.152186 0.155979 0.165866
0.152186 0.155979 0.165866
0.152186 0.155979 0.165866
0.152186 0.155979 0.165866
0.152186 0.155979 0.165866
0.152186 0.155979 0.165866
0.152186 0.155979 0.165866
0.152186 0.155979 0.165866
0.152186 0.155979 0.165866
0.152186 0.155979 0.165866
0.152186 0.155979 0.165866
0.152186 0.155979 0.165866
0.152186 0.155979 0.165866
0.152186 0.155979 0.165866
0.152186 0.155979 0.165866
0.152186 0.155979 0.165866
0.152186 0.155979 0.165866
0.152186 0.155979 0.165866
0.152186 0.155979 0.165866
0.152186 0.155979 0.165866
0.152186 0.155979 0.165866
0.152186 0.155979 0.165866
0.152186 0.155979 0.165866
0.152186 0.155979 0.165866
0.152186 0.155979 0.165866
0.152186 0.155979 0.165866
0.152186 0.155979 0.165866
0.152186 0.155979 0.165866
0.152186 0.155979 0.165866
0.152186 0.155979 0.165866
0.152186 0.155979 0.165866
0.152186 0.155979 0.165866
0.152186 0.155979 0.165866
0.152186 0.155979 0.165866
0.152186 0.155979 0.165866
0.152186 0.155979 0.165866
0.152186 0.155979 0.165866
0.152186 0.155979 0.165866
0.152186 0.155979 0.165866
0.152186 0.155979 0.165866
0.152186 0.155979 0.165866
0.152186 0.155979 0.165866
0.152186 0.155979 0.165866
0.152186 0.155979 0.165866
0.152186 0.155979 0.165866
0.152186 0.155979 0.165866
0.152186 0.155979 0.165866
0.152186 0.155979 0.165866
0.152186 0.155979 0.165866
0.152186 0.155979 0.165866
0.152186 0.155979 0.165866
0.152186 0.155979 0.165866
0.152186 0.155979 0.165866
0.152186 0.155979 0.165866
0.152186 0.155979 0.165866
0.152186 0.155979 0.165866
0.152186 0.155979 0.165866
0.152186 0.155979 0.165866
0.152186 0.155979 0.165866
0.152186 0.155979 0.165866
0.152186 0.155979 0.165866
0.152186 0.155979 0.165866
0.152186 0.155979 0.165866
0.152186 0.155979 0.165866
0.152186 0.155979 0.165866
0.152186 0.155979 0.165866
0.152186 0.155979 0.165866
0.152186 0.155979 0.165866
0.152186 0.155979 0.165866
0.152186 0.155979 0.165866
0.152186 0.155979 0.165866
0.152186 0.155979 0.165866
0.152186 0.155979 0.165866
0.152186 0.155979 0.165866
0.152186 0.155979 0.165866
0.152186 0.155979 0.165866
0.152186 0.155979 0.165866
0.152186 0.155979 0.165866
0.152186 0.155979 0.165866
0.152186 0.155979 0.165866
0.152186 0.155979 0.165866
0.152186 0.155979 0.165866
0.152186 0.155979 0.165866
0.152186 0.155979 0.165866
0.152186 0.155979 0.165866
0.152186 0.155979 0.165866
0.152186 0.155979 0.165866
0.152186 0.155979 0.165866
0.152186 0.155979 0.165866
0.152186 0.155979 0.165866
0.152186 0.155979 0.165866
0.152186 0.155979 0.165866
0.152186 0.155979 0.165866
0.152186 0.155979 0.165866
0.152186 0.155979 0.165866
0.152186 0.155979 0.165866
0.152186 0.155979 0.165866
0.152186 0.155979 0.165866
0.152186 0.155979 0.165866
0.152186 0.155979 0.165866
0.152186 0.155979 0.165866
0.152186 0.155979 0.165866
0.152186 0.155979 0.165866
0.152186 0.155979 0.165866
0.152186 0.155979 0.165866
0.152186 0.155979 0.165866
0.152186 0.155979 0.165866
0.152186 0.155979 0.165866
0.152186 0.155979 0.165866
0.152186 0.155979 0.165866
0.152186 0.155979 0.165866
0.152186 0.155979 0.165866
0.152186 0.155979 0.165866
0.152186 0.155979 0.165866
0.152186 0.155979 0.165866
0.152186 0.155979 0.165866
0.152186 0.155979 0.165866
0.152186 0.155979 0.165866
0.152186 0.155979 0.165866
0.152186 0.155979 0.165866
0.152186 0.155979 0.165866
0.152186 0.155979 0.165866
0.152186 0.155979 0.165866
0.152186 0.155979 0.165866
0.152186 0.155979 0.165866
0.152186 0.155979 0.165866
0.152186 0.155979 0.165866
0.152186 0.155979 0.165866
0.152186 0.155979 0.165866
0.152186 0.155979 0.165866
0.152186 0.155979 0.165866
0.152186 0.155979 0.165866
0.152186 0.155979 0.165866
0.152186 0.155979 0.165866
0.152186 0.155979 0.165866
0.152186 0.155979 0.165866
0.152186 0.155979 0.165866
0.152186 0.155979 0.165866
0.152186 0.155979 0.165866
0.152186 0.155979 0.165866
0.152186 0.155979 0.165866
0.152186 0.155979 0.165866
0.152186 0.155979 0.165866
0.152186 0.155979 0.165866
0.152186 0.155979 0.165866
0.152186 0.155979 0.165866
0.152186 0.155979 0.165866
0.152186 0.155979 0.165866
0.152186 0.155979 0.165866
0.152186 0.155979 0.165866
0.152206 0.155979 0.165866
0.152239 0.155979 0.165866
0.152271 0.155979 0.165866
0.152304 0.155979 0.165866
0.152337 0.155979 0.165866
0.152369 0.155979 0.165866
0.152402 0.155979 0.165866
0.152435 0.155979 0.165866
0.152467 0.155979 0.165866
0.152500 0.155979 0.165866
0.152533 0.155979 0.165866
0.152565 0.155979 0.165866
0.152598 0.155979 0.165866
0.152631 0.155979 0.165866
0.152663 0.155979 0.165866
0.152696 0.155979 0.165866
0.152729 0.155979 0.165866
0.152761 0.155979 0.165866
0.152794 0.155979 0.165866
0.152827 0.155979 0.165866
0.152859 0.155979 0.165866
0.152892 0.155979 0.165866
0.152925 0.155979 0.165866
0.152957 0.155979 0.165866
0.152990 0.155979 0.165866
0.153023 0.155979 0.165866
0.153055 0.155979 0.165866
0.153088 0.155979 0.165866
0.153121 0.155979 0.165866
0.153153 0.155979 0.165866
0.153186 0.155979 0.165866
0.153219 0.155979 0.165866
0.153251 0.155979 0.165866
0.153295 0.155979 0.165866
0.153350 0.155979 0.165866
0.153405 0.155979 0.165866
0.153460 0.155979 0.165866
0.153515 0.155979 0.165866
0.153570 0.155979 0.165866
0.153625 0.155979 0.165866
0.153680 0.155979 0.165866
0.153735 0.155979 0.165866
0.153790 0.155979 0.165866
0.153845 0.155979 0.165866
0.153900 0.155979 0.165866
0.153955 0.155979 0.165866
0.154010 0.155979 0.165866
0.154065 0.155979 0.165866
0.154120 0.155979 0.165866
0.154175 0.155979 0.165866
0.154230 0.155979 0.165866
0.154285 0.155979 0.165866
0.154340 0.155979 0.165866
0.154395 0.155979 0.165866
0.154450 0.155979 0.165866
0.154505 0.155979 0.165866
0.154560 0.155979 0.165866
0.154615 0.155979 0.165866
0.154670 0.155979 0.165866
0.154725 0.155979 0.165866
0.154780 0.155979 0.165866
0.154835 0.155979 0.165866
0.154890 0.155985 0.165866
0.154945 0.156022 0.165866
0.155000 0.156058 0.165866
0.155055 0.156095 0.165866
0.155188 0.156131 0.165866
0.155457 0.156168 0.165866
0.155727 0.156204 0.165866
0.155997 0.156241 0.165866
0.156267 0.156277 0.165866
0.156536 0.156314 0.165866
0.156806 0.156350 0.165866
0.157076 0.156387 0.165866
0.157346 0.156423 0.165866
0.157615 0.156460 0.165866
0.157885 0.156496 0.165866
0.158155 0.156533 0.165866
0.158425 0.156569 0.165866
0.158694 0.156606 0.165866
0.158964 0.156642 0.165866
0.159234 0.156679 0.165866
0.159504 0.156715 0.165866
0.159773 0.156752 0.165866
0.160043 0.156788 0.165866
0.160313 0.156825 0.165866
0.160583 0.156861 0.165866
0.160852 0.156898 0.165866
0.161122 0.156934 0.165866
0.161392 0.156971 0.165866
0.161662 0.157007 0.165866
0.161931 0.157044 0.165866
0.162201 0.157080 0.165866
0.162471 0.157117 0.165866
0.162741 0.157153 0.165866
0.163010 0.157190 0.165866
0.163280 0.157281 0.165866
0.163550 0.157373 0.165866
0.163820 0.157464 0.165866
0.164160 0.157556 0.165866
0.164724 0.157648 0.165866
0.165287 0.157740 0.165866
0.165851 0.157832 0.165866
0.166415 0.157923 0.165866
0.166978 0.158015 0.165866
0.167542 0.158107 0.165866
0.168105 0.158199 0.165866
0.168669 0.158291 0.165866
0.169233 0.158382 0.165866
0.169796 0.158474 0.165866
0.170360 0.158566 0.165866
0.170923 0.158658 0.165866
0.171487 0.158750 0.165866
0.172050 0.158841 0.165866
0.172614 0.158933 0.165866
0.173177 0.159025 0.165866
0.173741 0.159117 0.165866
0.174305 0.159209 0.165866
0.174868 0.159300 0.165866
0.175432 0.159392 0.165866
0.175995 0.159484 0.165866
0.176559 0.159576 0.165866
0.177122 0.159668 0.165866
0.177686 0.159759 0.165866
0.178250 0.159851 0.165866
0.178813 0.159943 0.165875
0.179377 0.160035 0.165948
0.179940 0.160127 0.166022
0.180504 0.160218 0.166095
0.181067 0.160443 0.166168
0.181631 0.160701 0.166242
0.182195 0.160959 0.166315
0.182819 0.161217 0.166388
0.183883 0.161475 0.166462
0.184947 0.161733 0.166535
0.186011 0.161991 0.166608
0.187074 0.162249 0.166682
0.188138 0.162507 0.166755
0.189202 0.162765 0.166828
0.190266 0.163023 0.166902
0.191330 0.163281 0.166975
0.192394 0.163539 0.167048
0.193457 0.163797 0.167122
0.194521 0.164055 0.167195
0.195585 0.164313 0.167268
0.196649 0.164571 0.167341
0.197713 0.164829 0.167415
0.198777 0.165087 0.167488
0.199840 0.165345 0.167561
0.200904 0.165603 0.167635
0.201968 0.165861 0.167708
0.203032 0.166119 0.167781
0.204096 0.166377 0.167855
0.205159 0.166635 0.167928
0.206223 0.166893 0.168001
0.207287 0.167151 0.168075
0.208351 0.167409 0.168148
0.209415 0.167666 0.168221
0.210479 0.167924 0.168295
0.211542 0.168182 0.168416
0.212606 0.168440 0.168548
0.213670 0.168698 0.168679
0.214734 0.169180 0.168811
0.215798 0.169800 0.168942
0.216862 0.170420 0.169073
0.217927 0.171040 0.169205
0.219760 0.171660 0.169336
0.221593 0.172280 0.169467
0.223426 0.172900 0.169599
0.225258 0.173520 0.169730
0.227091 0.174140 0.169861
0.228924 0.174760 0.169993
0.230757 0.175380 0.170124
0.232590 0.176000 0.170255
0.234423 0.176620 0.170387
0.236256 0.177240 0.170518
0.238088 0.177860 0.170649
0.239921 0.178481 0.170781
0.241754 0.179101 0.170912
0.243587 0.179721 0.171044
0.245420 0.180341 0.171175
0.247253 0.180961 0.171306
0.249085 0.181581 0.171438
0.250918 0.182201 0.171569
0.252751 0.182821 0.171700
0.254584 0.183441 0.171832
0.256417 0.184061 0.171963
0.258250 0.184681 0.172094
0.260083 0.185301 0.172226
0.261915 0.185921 0.172357
0.263748 0.186541 0.172488
0.265581 0.187161 0.172620
0.267414 0.187782 0.172801
0.269247 0.188402 0.173022
0.271080 0.189022 0.173243
0.272912 0.189869 0.173464
0.274745 0.191018 0.173685
0.276578 0.192166 0.173906
0.278411 0.193314 0.174127
0.281181 0.194462 0.174348
0.284075 0.195610 0.174569
0.286970 0.196758 0.174790
0.289864 0.197906 0.175011
0.292759 0.199054 0.175232
0.295653 0.200203 0.175453
0.298548 0.201351 0.175674
0.301442 0.202499 0.175895
0.304337 0.203647 0.176116
0.307231 0.204795 0.176337
0.310126 0.205943 0.176558
0.313020 0.207091 0.176779
0.315915 0.208239 0.177000
0.318809 0.209387 0.177221
0.321704 0.210536 0.177442
0.324598 0.211684 0.177663
0.327493 0.212832 0.177884
0.330387 0.213980 0.178105
0.333282 0.215128 0.178326
0.336176 0.216276 0.178547
0.339071 0.217424 0.178768
0.341965 0.218572 0.178989
0.344860 0.219720 0.179210
0.347754 0.220869 0.179431
0.350649 0.222017 0.179652
0.353543 0.223165 0.179873
0.356438 0.224313 0.180138
0.359332 0.225461 0.180523
0.362226 0.226609 0.180908
0.365121 0.227955 0.181293
0.368015 0.229909 0.181678
0.370910 0.231863 0.182063
0.373804 0.233816 0.182448
0.377613 0.235770 0.182833
0.381705 0.237724 0.183219
0.385798 0.239677 0.183604
0.389890 0.241631 0.183989
0.393982 0.243585 0.184374
0.398075 0.245538 0.184759
0.402167 0.247492 0.185144
0.406259 0.249445 0.185529
0.410352 0.251399 0.185914
0.414444 0.253353 0.186299
0.418536 0.255306 0.186684
0.422629 0.257260 0.187069
0.426721 0.259214 0.187455
0.430813 0.261167 0.187840
0.434906 0.263121 0.188225
0.438998 0.265075 0.188610
0.443090 0.267028 0.188995
0.447183 0.268982 0.189380
0.451275 0.270935 0.189765
0.455367 0.272889 0.190150
0.459460 0.274843 0.190535
0.463552 0.276796 0.190920
0.467644 0.278750 0.191306
0.471737 0.280704 0.191691
0.475829 0.282657 0.192076
0.479921 0.284611 0.192461
0.484014 0.286565 0.192846
0.488106 0.288518 0.193624
0.492198 0.290472 0.194409
0.496291 0.292477 0.195193
0.500383 0.295278 0.195977
0.504475 0.298079 0.196762
0.508568 0.300880 0.197546
0.512943 0.303681 0.198330
0.517474 0.306482 0.199115
0.522005 0.309283 0.199899
0.526536 0.312084 0.200683
0.531068 0.314885 0.201468
0.535599 0.317686 0.202252
0.540130 0.320487 0.203036
0.544662 0.323288 0.203821
0.549193 0.326089 0.204605
0.553724 0.328890 0.205389
0.558255 0.331691 0.206174
0.562787 0.334492 0.206958
0.567318 0.337293 0.207742
0.571849 0.340094 0.208527
0.576380 0.342895 0.209311
0.580912 0.345696 0.210095
0.585443 0.348497 0.210880
0.589974 0.351299 0.211664
0.594506 0.354100 0.212448
0.599037 0.356901 0.213233
0.603568 0.359702 0.214017
0.608099 0.362503 0.214801
0.612631 0.365304 0.215586
0.617162 0.368105 0.216370
0.621693 0.370906 0.217154
0.626225 0.373707 0.217939
0.630756 0.376508 0.218723
0.635287 0.379309 0.219991
0.639818 0.382110 0.221466
0.644350 0.384911 0.222940
0.648881 0.388562 0.224415
0.653412 0.392335 0.225889
0.657943 0.396107 0.227364
0.662190 0.399880 0.228839
0.666179 0.403652 0.230313
0.670168 0.407425 0.231788
0.674156 0.411197 0.233262
0.678145 0.414970 0.234737
0.682134 0.418742 0.236211
0.686122 0.422515 0.237686
0.690111 0.426287 0.239161
0.694099 0.430060 0.240635
0.698088 0.433832 0.242110
0.702077 0.437605 0.243584
0.706065 0.441377 0.245059
0.710054 0.445150 0.246533
0.714043 0.448922 0.248008
0.718031 0.452695 0.249482
0.722020 0.456467 0.250957
0.726009 0.460240 0.252432
0.729997 0.464012 0.253906
0.733986 0.467785 0.255381
0.737974 0.471557 0.256855
0.741963 0.475330 0.258330
0.745952 0.479102 0.259804
0.749940 0.482875 0.261279
0.753929 0.486647 0.262754
0.757918 0.490420 0.264228
0.761906 0.494192 0.265703
0.765895 0.497964 0.267177
0.769884 0.501737 0.269126
0.773872 0.505509 0.271737
0.777861 0.509282 0.274348
0.781849 0.513273 0.276959
0.785838 0.517361 0.279570
0.789827 0.521450 0.282181
0.793381 0.525538 0.284791
0.796294 0.529627 0.287402
0.799208 0.533715 0.290013
0.802122 0.537804 0.292624
0.805036 0.541893 0.295235
0.807949 0.545981 0.297846
0.810863 0.550070 0.300457
0.813777 0.554158 0.303068
0.816691 0.558247 0.305679
0.819605 0.562335 0.308290
0.822518 0.566424 0.310901
0.825432 0.570513 0.313512
0.828346 0.574601 0.316123
0.831260 0.578690 0.318733
0.834173 0.582778 0.321344
0.837087 0.586867 0.323955
0.840001 0.590955 0.326566
0.842915 0.595044 0.329177
0.845829 0.599132 0.331788
0.848742 0.603221 0.334399
0.851656 0.607310 0.337010
0.854570 0.611398 0.339621
0.857484 0.615487 0.342232
0.860397 0.619575 0.344843
0.863311 0.623664 0.347454
0.866225 0.627752 0.350065
0.869139 0.631841 0.352675
0.872053 0.635930 0.355484
0.874966 0.640018 0.359580
0.877880 0.644107 0.363675
0.880794 0.647906 0.367770
0.883708 0.651422 0.371865
0.886621 0.654937 0.375960
0.889130 0.658453 0.380055
0.890623 0.661969 0.384151
0.892115 0.665484 0.388246
0.893607 0.669000 0.392341
0.895100 0.672516 0.396436
0.896592 0.676031 0.400531
0.898084 0.679547 0.404627
0.899577 0.683063 0.408722
0.901069 0.686578 0.412817
0.902561 0.690094 0.416912
0.904054 0.693609 0.421007
0.905546 0.697125 0.425103
0.907038 0.700641 0.429198
0.908531 0.704156 0.433293
0.910023 0.707672 0.437388
0.911515 0.711188 0.441483
0.913008 0.714703 0.445579
0.914500 0.718219 0.449674
0.915992 0.721735 0.453769
0.917485 0.725250 0.457864
0.918977 0.728766 0.461959
0.920470 0.732282 0.466055
0.921962 0.735797 0.470150
0.923454 0.739313 0.474245
0.924947 0.742828 0.478340
0.926439 0.746344 0.482435
0.927931 0.749860 0.486530
0.929424 0.753375 0.490626
0.930916 0.756891 0.495104
0.932408 0.760407 0.499650
0.933901 0.763701 0.504197
0.935393 0.766525 0.508743
0.936885 0.769348 0.513289
0.938270 0.772172 0.517836
0.939110 0.774996 0.522382
0.939950 0.777819 0.526928
0.940790 0.780643 0.531475
0.941630 0.783466 0.536021
0.942470 0.786290 0.540567
0.943310 0.789114 0.545113
0.944150 0.791937 0.549660
0.944990 0.794761 0.554206
0.945830 0.797584 0.558752
0.946670 0.800408 0.563299
0.947510 0.803232 0.567845
0.948350 0.806055 0.572391
0.949190 0.808879 0.576938
0.950030 0.811702 0.581484
0.950870 0.814526 0.586030
0.951710 0.817350 0.590577
0.952550 0.820173 0.595123
0.953390 0.822997 0.599669
0.954230 0.825820 0.604215
0.955070 0.828644 0.608762
0.955910 0.831468 0.613308
0.956750 0.834291 0.617854
0.957590 0.837115 0.622401
0.958430 0.839938 0.626947
0.959270 0.842762 0.631493
0.960110 0.845586 0.636040
0.960950 0.848409 0.640586
0.961790 0.851233 0.644811
0.962630 0.854056 0.648790
0.963470 0.856745 0.652769
0.964310 0.858560 0.656747
0.965150 0.860375 0.660726
0.965974 0.862190 0.664705
0.966459 0.864005 0.668683
0.966945 0.865821 0.672662
0.967430 0.867636 0.676641
0.967915 0.869451 0.680619
0.968401 0.871266 0.684598
0.968886 0.873081 0.688577
0.969371 0.874897 0.692555
0.969857 0.876712 0.696534
0.970342 0.878527 0.700513
0.970828 0.880342 0.704492
0.971313 0.882157 0.708470
0.971798 0.883972 0.712449
0.972284 0.885788 0.716428
0.972769 0.887603 0.720406
0.973255 0.889418 0.724385
0.973740 0.891233 0.728364
0.974225 0.893048 0.732342
0.974711 0.894864 0.736321
0.975196 0.896679 0.740300
0.975682 0.898494 0.744279
0.976167 0.900309 0.748257
0.976652 0.902124 0.752236
0.977138 0.903939 0.756215
0.977623 0.905755 0.760193
0.978108 0.907570 0.764172
0.978594 0.909385 0.768151
0.979079 0.911200 0.772129
0.979565 0.913015 0.775761
0.980050 0.914831 0.778505
0.980535 0.916646 0.781250
0.981021 0.917884 0.783995
0.981506 0.919090 0.786739
0.981992 0.920297 0.789484
0.982289 0.921504 0.792229
0.982572 0.922710 0.794973
0.982854 0.923917 0.797718
0.983137 0.925124 0.800463
0.983419 0.926331 0.803208
0.983702 0.927537 0.805952
0.983985 0.928744 0.808697
0.984267 0.929951 0.811442
0.984550 0.931157 0.814186
0.984832 0.932364 0.816931
0.985115 0.933571 0.819676
0.985397 0.934777 0.822421
0.985680 0.935984 0.825165
0.985962 0.937191 0.827910
0.986245 0.938398 0.830655
0.986528 0.939604 0.833399
0.986810 0.940811 0.836144
0.987093 0.942018 0.838889
0.987375 0.943224 0.841634
0.987658 0.944431 0.844378
0.987940 0.945638 0.847123
0.988223 0.946844 0.849868
0.988505 0.948051 0.852612
0.988788 0.949258 0.855357
0.989071 0.950465 0.858102
0.989353 0.951671 0.860847
0.989636 0.952878 0.863591
0.989918 0.954085 0.866336
0.990201 0.955291 0.867943
0.990483 0.956498 0.869548
0.990766 0.957283 0.871153
0.991049 0.957937 0.872758
0.991331 0.958591 0.874363
0.991498 0.959245 0.875968
0.991637 0.959899 0.877573
0.991776 0.960553 0.879178
0.991914 0.961207 0.880783
0.992053 0.961861 0.882388
0.992192 0.962515 0.883993
0.992331 0.963169 0.885598
0.992470 0.963823 0.887203
0.992609 0.964477 0.888808
0.992747 0.965131 0.890413
0.992886 0.965786 0.892018
0.993025 0.966440 0.893623
0.993164 0.967094 0.895228
0.993303 0.967748 0.896833
0.993442 0.968402 0.898438
0.993581 0.969056 0.900043
0.993720 0.969710 0.901648
0.993858 0.970364 0.903253
0.993997 0.971018 0.904858
0.994136 0.971672 0.906463
0.994275 0.972326 0.908068
0.994414 0.972980 0.909673
0.994553 0.973634 0.911278
0.994691 0.974288 0.912883
0.994830 0.974942 0.914488
0.994969 0.975596 0.916093
0.995108 0.976250 0.917698
0.995247 0.976904 0.919303
0.995386 0.977558 0.920551
0.995525 0.978212 0.921656
0.995664 0.978669 0.922761
0.995802 0.978983 0.923865
0.995941 0.979296 0.924970
0.996031 0.979609 0.926075
0.996099 0.979923 0.927180
0.996167 0.980236 0.928285
0.996234 0.980550 0.929390
0.996302 0.980863 0.930495
0.996370 0.981176 0.931600
0.996437 0.981489 0.932705
0.996505 0.981803 0.933809
0.996573 0.982116 0.934914
0.996641 0.982430 0.936019
0.996708 0.982743 0.937124
0.996776 0.983056 0.938229
0.996844 0.983369 0.939334
0.996911 0.983683 0.940439
0.996979 0.983996 0.941544
0.997047 0.984309 0.942649
0.997115 0.984623 0.943753
0.997182 0.984936 0.944858
0.997250 0.985250 0.945963
0.997318 0.985563 0.947068
0.997385 0.985876 0.948173
0.997453 0.986189 0.949278
0.997521 0.986503 0.950383
0.997589 0.986816 0.951488
0.997656 0.987130 0.952593
0.997724 0.987443 0.953697
0.997792 0.987756 0.954802
0.997859 0.988070 0.955907
0.997927 0.988383 0.956815
0.997995 0.988696 0.957461
0.998062 0.988942 0.958108
0.998130 0.989084 0.958754
0.998198 0.989226 0.959401
0.998247 0.989367 0.960047
0.998282 0.989509 0.960694
0.998317 0.989651 0.961340
0.998352 0.989792 0.961987
0.998388 0.989934 0.962633
0.998423 0.990076 0.963280
0.998458 0.990218 0.963926
0.998493 0.990359 0.964573
0.998528 0.990501 0.965219
0.998563 0.990643 0.965866
0.998598 0.990785 0.966512
0.998634 0.990926 0.967159
0.998669 0.991068 0.967805
0.998704 0.991210 0.968452
0.998739 0.991351 0.969098
0.998774 0.991493 0.969745
0.998809 0.991635 0.970391
0.998844 0.991777 0.971038
0.998879 0.991918 0.971684
0.998914 0.992060 0.972331
0.998950 0.992202 0.972977
0.998985 0.992344 0.973624
0.999020 0.992485 0.974270
0.999055 0.992627 0.974916
0.999090 0.992769 0.975563
0.999125 0.992910 0.976209
0.999160 0.993052 0.976856
0.999195 0.993194 0.977502
0.999231 0.993336 0.978103
0.999266 0.993477 0.978434
0.999301 0.993600 0.978765
0.999336 0.993652 0.979097
0.999371 0.993704 0.979428
0.999399 0.993757 0.979760
0.999417 0.993809 0.980091
0.999436 0.993861 0.980422
0.999454 0.993913 0.980754
0.999472 0.993965 0.981085
0.999491 0.994017 0.981416
0.999509 0.994069 0.981748
0.999528 0.994121 0.982079
0.999546 0.994173 0.982410
0.999564 0.994225 0.982742
0.999583 0.994277 0.983073
0.999601 0.994329 0.983404
0.999620 0.994381 0.983736
0.999638 0.994433 0.984067
0.999656 0.994485 0.984398
0.999675 0.994537 0.984730
0.999693 0.994589 0.985061
0.999712 0.994641 0.985392
0.999730 0.994693 0.985724
0.999748 0.994745 0.986055
0.999767 0.994797 0.986386
0.999785 0.994849 0.986718
0.999804 0.994901 0.987049
0.999822 0.994953 0.987380
0.999840 0.995005 0.987712
0.999859 0.995057 0.988043
0.999877 0.995109 0.988374
